%C1
(Generated by SprutCAM Robot)
G90

G129=10 (G00 velocity)
G231=30  (G00 accel)
G131=100 (linear accel, 500=fastest)
G133=5  (jerk control, 1=fastest)
G134=5 (jerk control, 1=fastest)

#TRAFO ON
M3 S64

#CS OFF ALL
#CS DEF[1][0.0,0.0,0.0,0.0,0.0,0.0]
#CS ON[1]

#MCS ON

G91
G1 X-1 F1000
G1 X1
G90

#MACHINE DATA SYN [AXNR=1 AXPARAM="(lr_param.anwahl_losekomp 1"]
#MACHINE DATA SYN [AXNR=1 AXPARAM="getriebe[0].lose        30"]
#MACHINE DATA SYN [AXNR=1 AXPARAM="lr_param.n_backlash_cyc 15"]

#MACHINE DATA SYN [AXNR=7 AXPARAM="(lr_param.anwahl_losekomp 1"]
#MACHINE DATA SYN [AXNR=7 AXPARAM="getriebe[0].lose        30"]
#MACHINE DATA SYN [AXNR=7 AXPARAM="lr_param.n_backlash_cyc 120&#2;"]

G131 = 100
G133 = 100
G134 = 100

#MCS ON
G0 X6.914 Y-64.144 Z121.199 A-0.261 B-56.171 C-0.195
#MCS OFF

G90

G1 X627.675 Y52.5 Z50 A0 B0 C180 F3000
G1 X627.675 Y52.5 Z9.85 A0 B0 C180 F3000
#HSC ON
G1 X627.675 Y52.5 Z-0.15 A0 B0 C180 F600
G1 X661.5 Y52.5 Z-0.15 A0 B0 C180 F2000
G1 X723.951 Y52.534 Z-0.15 A0 B0 C180 F2000
G1 X724.086 Y52.564 Z-0.15 A0 B0 C180 F2000
G1 X724.35 Y52.643 Z-0.15 A0 B0 C180 F2000
G1 X724.607 Y52.742 Z-0.15 A0 B0 C180 F2000
G1 X724.855 Y52.861 Z-0.15 A0 B0 C180 F2000
G1 X725.094 Y52.998 Z-0.15 A0 B0 C180 F2000
G1 X725.322 Y53.153 Z-0.15 A0 B0 C180 F2000
G1 X725.538 Y53.325 Z-0.15 A0 B0 C180 F2000
G1 X725.739 Y53.513 Z-0.15 A0 B0 C180 F2000
G1 X725.833 Y53.614 Z-0.15 A0 B0 C180 F2000
G1 X725.91 Y53.722 Z-0.15 A0B0 C180 F2000
G1 X726.048 Y53.949 Z-0.15 A0 B0 C180 F2000
G1 X726.168 Y54.186 Z-0.15 A0B0 C180 F2000
G1 X726.271 Y54.431 Z-0.15 A0 B0 C180 F2000
G1 X726.356 Y54.683 Z-0.15 A0 B0 C180 F2000
G1 X726.422 Y54.94 Z-0.15 A0 B0 C180 F2000
G1 X726.468 Y55.201 Z-0.15 A0  B0 C180 F2000
G1 X726.496 Y55.465 Z-0.15 A0 B0 C180 F2000
G1 X726.5 Y55.598 Z-0.15 A0 B0 C180 F2000
G1 X726.466 Y139.951 Z-0.15 A0B0 C180 F2000
G1 X726.449 Y140.031 Z-0.15 A0 B0 C180 F2000
G1 X726.409 Y140.189 Z-0.15 A0 B0 C180 F2000
G1 X726.36 Y140.345 Z-0.15 A0 B0 C180 F2000
G1 X726.305 Y140.498 Z-0.15 A0 B0 C180 F2000
G1 X726.242 Y140.649 Z-0.15 A0 B0 C180 F2000
G1 X726.172 Y140.796 Z-0.15 A0 B0 C180 F2000
G1 X726.094 Y140.94 Z-0.15 A0 B0 C180 F2000
G1 X726.01 Y141.079 Z-0.15 A0 B0 C180 F2000
G1 X725.92 Y141.215 Z-0.15 A0 B0 C180 F2000
G1 X725.823 Y141.346 Z-0.15 A0 B0 C180 F2000
G1 X725.72 Y141.472 Z-0.15 A0 B0 C180 F2000
G1 X725.61 Y141.594 Z-0.15 A0 B0 C180 F2000
G1 X725.495 Y141.709 Z-0.15 A0 B0 C180 F2000
G1 X725.375 Y141.819 Z-0.15 A0 B0 C180 F2000
G1 X725.25 Y141.924 Z-0.15 A0 B0 C180 F2000
G1 X725.119 Y142.022 Z-0.15 A0 B0 C180 F2000
G1 X725.052 Y142.068 Z-0.15 A0 B0 C180 F2000
G1 X724.956 Y142.125 Z-0.15 A0 B0 C180 F2000
G1 X724.758 Y142.225 Z-0.15 A0 B0 C180 F2000
G1 X724.553 Y142.31 Z-0.15 A0 B0 C180 F2000
G1 X724.343 Y142.38 Z-0.15 A0 B0 C180 F2000
G1 X724.127 Y142.435 Z-0.15 A0 B0 C180 F2000
G1 X723.909 Y142.474 Z-0.15 A0 B0 C180 F2000
G1 X723.688 Y142.497 Z-0.15 A0 B0 C180 F2000
G1 X723.466 Y142.504 Z-0.15 A0 B0 C180 F2000
G1 X723.355 Y142.5 Z-0.15 A0 B0 C180 F2000
G1 X599.049 Y142.466 Z-0.15 A0 B0 C180 F2000
G1 X598.914 Y142.436 Z-0.15 A0 B0 C180 F2000
G1 X598.65 Y142.357 Z-0.15 A0 B0 C180 F2000
G1 X598.393 Y142.258 Z-0.15 A0 B0 C180 F2000
G1 X598.145 Y142.139 Z-0.15 A0 B0 C180 F2000
G1 X597.906 Y142.002 Z-0.15 A0 B0 C180 F2000
G1 X597.678 Y141.847 Z-0.15 A0 B0 C180 F2000
G1 X597.462 Y141.675 Z-0.15 A0 B0 C180 F2000
G1 X597.26 Y141.487 Z-0.15 A0 B0 C180 F2000
G1 X597.167 Y141.386 Z-0.15 A0 B0 C180 F2000
G1 X597.09 Y141.278 Z-0.15 A0 B0 C180 F2000
G1 X596.952 Y141.051 Z-0.15 A0 B0 C180 F2000
G1 X596.832 Y140.814 Z-0.15 A0 B0 C180 F2000
G1 X596.729 Y140.569 Z-0.15 A0 B0 C180 F2000
G1 X596.644 Y140.317 Z-0.15 A0 B0 C180 F2000
G1 X596.578 Y140.06 Z-0.15 A0 B0 C180 F2000
G1 X596.532 Y139.799 Z-0.15 A0 B0 C180 F2000
G1 X596.504 Y139.535 Z-0.15 A0 B0 C180 F2000
G1 X596.5 Y139.402 Z-0.15 A0 B0 C180 F2000
G1 X596.534 Y55.049 Z-0.15 A0 B0 C180 F2000
G1 X596.551 Y54.969 Z-0.15 A0 B0 C180 F2000
G1 X596.591 Y54.811 Z-0.15 A0 B0 C180 F2000
G1 X596.64 Y54.655 Z-0.15 A0 B0 C180 F2000
G1 X596.695 Y54.502 Z-0.15 A0 B0 C180 F2000
G1 X596.758 Y54.351 Z-0.15 A0 B0 C180 F2000
G1 X596.828 Y54.204 Z-0.15 A0 B0 C180 F2000
G1 X596.906 Y54.06 Z-0.15 A0 B0 C180 F2000
G1 X596.99 Y53.921 Z-0.15 A0 B0 C180 F2000
G1 X597.08 Y53.785 Z-0.15 A0 B0 C180 F2000
G1 X597.177 Y53.654 Z-0.15 A0 B0 C180 F2000
G1 X597.28 Y53.528 Z-0.15 A0 B0 C180 F2000
G1 X597.39 Y53.406 Z-0.15 A0 B0 C180 F2000
G1 X597.505 Y53.291 Z-0.15 A0 B0 C180 F2000
G1 X597.625 Y53.181 Z-0.15 A0 B0 C180 F2000
G1 X597.75 Y53.076 Z-0.15 A0 B0 C180 F2000
G1 X597.881 Y52.978 Z-0.15 A0 B0 C180 F2000
G1 X597.948 Y52.932 Z-0.15 A0 B0 C180 F2000
G1 X598.043 Y52.875 Z-0.15 A0 B0 C180 F2000
G1 X598.242 Y52.775 Z-0.15 A0 B0 C180 F2000
G1 X598.447 Y52.69 Z-0.15 A0 B0 C180 F2000
G1 X598.657 Y52.62 Z-0.15 A0 B0 C180 F2000
G1 X598.873 Y52.565 Z-0.15 A0 B0 C180 F2000
G1 X599.091 Y52.526 Z-0.15 A0 B0 C180 F2000
G1 X599.312 Y52.503 Z-0.15 A0 B0 C180 F2000
G1 X599.534 Y52.495 Z-0.15 A0 B0 C180 F2000
G1 X599.645 Y52.5 Z-0.15 A0 B0 C180 F2000
G1 X627.675 Y52.5 Z-0.15 A0 B0 C180 F2000
G1 X627.764 Y52.5 Z-0.163 A0 B0 C180 F1080
G1 X627.938 Y52.5 Z-0.209 A0 B0 C180 F1080
G1 X628.106 Y52.501 Z-0.272 A0 B0 C180 F1080
G1 X628.266 Y52.501 Z-0.353 A0 B0 C180 F1080
G1 X628.341 Y52.501 Z-0.402 A0 B0 C180 F1080
G1 X628.573 Y52.5 Z-0.449 A0 B0 C180 F1080
G1 X661.5 Y52.5 Z-0.449 A0 B0 C180 F2000
G1 X723.973 Y52.537 Z-0.449 A0 B0 C180 F2000
G1 X724.088 Y52.558 Z-0.449 A0 B0 C180 F2000
G1 X724.315 Y52.616 Z-0.449 A0 B0 C180 F2000
G1 X724.538 Y52.691 Z-0.449 A0 B0 C180 F2000
G1 X724.753 Y52.783 Z-0.449 A0 B0 C180 F2000
G1 X724.961 Y52.892 Z-0.449 A0 B0 C180 F2000
G1 X725.16 Y53.015 Z-0.449 A0 B0 C180 F2000
G1 X725.349 Y53.154 Z-0.449 A0 B0 C180 F2000
G1 X725.527 Y53.307 Z-0.449 A0 B0 C180 F2000
G1 X725.693 Y53.473 Z-0.449 A0 B0 C180 F2000
G1 X725.846 Y53.651 Z-0.449 A0 B0 C180 F2000
G1 X725.985 Y53.84 Z-0.449 A0 B0 C180 F2000
G1 X726.108 Y54.039 Z-0.449 A0 B0 C180 F2000
G1 X726.217 Y54.247 Z-0.449 A0 B0 C180 F2000
G1 X726.309 Y54.462 Z-0.449 A0 B0 C180 F2000
G1 X726.384 Y54.685 Z-0.449 A0 B0 C180 F2000
G1 X726.442 Y54.912 Z-0.449 A0 B0 C180 F2000
G1 X726.463 Y55.027 Z-0.449 A0 B0 C180 F2000
G1 X726.482 Y61.029 Z-0.449 A0 B0 C180 F2000
G1 X726.506 Y73.034 Z-0.449 A0 B0 C180 F2000
G1 X726.516 Y85.038 Z-0.449 A0 B0 C180 F2000
G1 X726.51 Y97.042 Z-0.449 A0 B0 C180 F2000
G1 X726.5 Y103.044 Z-0.449 A0 B0 C180 F2000
G1 X726.463 Y139.973 Z-0.449 A0 B0 C180 F2000
G1 X726.442 Y140.088 Z-0.449 A0 B0 C180 F2000
G1 X726.384 Y140.315 Z-0.449 A0 B0 C180 F2000
G1 X726.309 Y140.538 Z-0.449 A0 B0 C180 F2000
G1 X726.217 Y140.753 Z-0.449 A0 B0 C180 F2000
G1 X726.108 Y140.961 Z-0.449 A0 B0 C180 F2000
G1 X725.985 Y141.16 Z-0.449 A0 B0 C180 F2000
G1 X725.846 Y141.349 Z-0.449 A0 B0 C180 F2000
G1 X725.693 Y141.527 Z-0.449 A0 B0 C180 F2000
G1 X725.527 Y141.693 Z-0.449 A0 B0 C180 F2000
G1 X725.349 Y141.846 Z-0.449 A0 B0 C180 F2000
G1 X725.527 Y53.307 Z-0.449 A0 B0 C180 F2000
G1 X725.693 Y53.473 Z-0.449 A0 B0 C180 F2000
G1 X725.846 Y53.651 Z-0.449 A0 B0 C180 F2000
G1 X725.985 Y53.84 Z-0.449 A0 B0 C180 F2000
G1 X726.108 Y54.039 Z-0.449 A0 B0 C180 F2000
G1 X726.217 Y54.247 Z-0.449 A0 B0 C180 F2000
G1 X726.309 Y54.462 Z-0.449 A0 B0 C180 F2000
G1 X726.384 Y54.685 Z-0.449 A0 B0 C180 F2000
G1 X726.442 Y54.912 Z-0.449 A0 B0 C180 F2000
G1 X726.463 Y55.027 Z-0.449 A0 B0 C180 F2000
G1 X726.482 Y61.029 Z-0.449 A0 B0 C180 F2000
G1 X726.506 Y73.034 Z-0.449 A0 B0 C180 F2000
G1 X726.516 Y85.038 Z-0.449 A0 B0 C180 F2000
G1 X726.51 Y97.042 Z-0.449 A0 B0 C180 F2000
G1 X726.5 Y103.044 Z-0.449 A0 B0 C180 F2000
G1 X726.463 Y139.973 Z-0.449 A0 B0 C180 F2000
G1 X726.442 Y140.088 Z-0.449 A0 B0 C180 F2000
G1 X726.384 Y140.315 Z-0.449 A0 B0 C180 F2000
G1 X726.309 Y140.538 Z-0.449 A0 B0 C180 F2000
G1 X726.217 Y140.753 Z-0.449 A0 B0 C180 F2000
G1 X726.108 Y140.961 Z-0.449 A0 B0 C180 F2000
G1 X725.985 Y141.16 Z-0.449 A0 B0 C180 F2000
G1 X725.846 Y141.349 Z-0.449 A0 B0 C180 F2000
G1 X725.693 Y141.527 Z-0.449 A0 B0 C180 F2000
G1 X725.527 Y141.693 Z-0.449 A0 B0 C180 F2000
G1 X725.349 Y141.846 Z-0.449 A0 B0 C180 F2000
G1 X725.16 Y141.985 Z-0.449 A0 B0 C180 F2000
G1 X724.961 Y142.108 Z-0.449 A0 B0 C180 F2000
G1 X724.753 Y142.217 Z-0.449 A0 B0 C180 F2000
G1 X724.538 Y142.309 Z-0.449 A0 B0 C180 F2000
G1 X724.315 Y142.384 Z-0.449 A0 B0 C180 F2000
G1 X724.088 Y142.442 Z-0.449 A0 B0 C180 F2000
G1 X723.973 Y142.463 Z-0.449 A0 B0 C180 F2000
G1 X717.805 Y142.483 Z-0.449 A0 B0 C180 F2000
G1 X705.469 Y142.507 Z-0.449 A0 B0 C180 F2000
G1 X693.132 Y142.517 Z-0.449 A0 B0 C180 F2000
G1 X680.796 Y142.511 Z-0.449 A0 B0 C180 F2000
G1 X674.628 Y142.5 Z-0.449 A0 B0 C180 F2000
G1 X599.027 Y142.463 Z-0.449 A0 B0 C180 F2000
G1 X598.912 Y142.442 Z-0.449 A0 B0 C180 F2000
G1 X598.685 Y142.384 Z-0.449 A0 B0 C180 F2000
G1 X598.462 Y142.309 Z-0.449 A0 B0 C180 F2000
G1 X598.247 Y142.217 Z-0.449 A0 B0 C180 F2000
G1 X598.039 Y142.108 Z-0.449 A0 B0 C180 F2000
G1 X597.84 Y141.985 Z-0.449 A0 B0 C180 F2000
G1 X597.651 Y141.846 Z-0.449 A0 B0 C180 F2000
G1 X597.473 Y141.693 Z-0.449 A0 B0 C180 F2000
G1 X597.307 Y141.527 Z-0.449 A0 B0 C180 F2000
G1 X597.154 Y141.349 Z-0.449 A0 B0 C180 F2000
G1 X597.015 Y141.16 Z-0.449 A0 B0 C180 F2000
G1 X596.892 Y140.961 Z-0.449 A0 B0 C180 F2000
G1 X596.783 Y140.753 Z-0.449 A0 B0 C180 F2000
G1 X596.691 Y140.538 Z-0.449 A0 B0 C180 F2000
G1 X596.616 Y140.315 Z-0.449 A0 B0 C180 F2000
G1 X596.558 Y140.088 Z-0.449 A0 B0 C180 F2000
G1 X596.537 Y139.973 Z-0.449 A0 B0 C180 F2000
G1 X596.518 Y133.971 Z-0.449 A0 B0 C180 F2000
G1 X596.494 Y121.966 Z-0.449 A0 B0 C180 F2000
G1 X596.484 Y109.962 Z-0.449 A0 B0 C180 F2000
G1 X596.49 Y97.958 Z-0.449 A0 B0 C180 F2000
G1 X596.5 Y91.956 Z-0.449 A0 B0 C180 F2000
G1 X596.537 Y55.027 Z-0.449 A0 B0 C180 F2000
G1 X596.558 Y54.912 Z-0.449 A0 B0 C180 F2000
G1 X596.616 Y54.685 Z-0.449 A0 B0 C180 F2000
G1 X596.691 Y54.462 Z-0.449 A0 B0 C180 F2000
G1 X596.783 Y54.247 Z-0.449 A0 B0 C180 F2000
G1 X596.892 Y54.039 Z-0.449 A0 B0 C180 F2000
G1 X597.015 Y53.84 Z-0.449 A0 B0 C180 F2000
G1 X597.154 Y53.651 Z-0.449 A0 B0 C180 F2000
G1 X597.307 Y53.473 Z-0.449 A0 B0 C180 F2000
G1 X597.473 Y53.307 Z-0.449 A0 B0 C180 F2000
G1 X597.651 Y53.154 Z-0.449 A0 B0 C180 F2000
G1 X597.84 Y53.015 Z-0.449 A0 B0 C180 F2000
G1 X598.039 Y52.892 Z-0.449 A0 B0 C180 F2000
G1 X598.247 Y52.783 Z-0.449 A0 B0 C180 F2000
G1 X598.462 Y52.691 Z-0.449 A0 B0 C180 F2000
G1 X598.685 Y52.616 Z-0.449 A0 B0 C180 F2000
G1 X598.912 Y52.558 Z-0.449 A0 B0 C180 F2000
G1 X599.027 Y52.537 Z-0.449 A0 B0 C180 F2000
G1 X602.72 Y52.517 Z-0.449 A0 B0 C180 F2000
G1 X610.107 Y52.491 Z-0.449 A0 B0 C180 F2000
G1 X617.493 Y52.482 Z-0.449 A0 B0 C180 F2000
G1 X624.879 Y52.489 Z-0.449 A0 B0 C180 F2000
G1 X628.573 Y52.5 Z-0.449 A0 B0 C180 F2000
G1 X628.661 Y52.5 Z-0.462 A0 B0 C180 F1080
G1 X628.835 Y52.5 Z-0.508 A0 B0 C180 F1080
G1 X629.003 Y52.501 Z-0.571 A0 B0 C180 F1080
G1 X629.163 Y52.501 Z-0.652 A0 B0 C180 F1080
G1 X629.239 Y52.501 Z-0.701 A0 B0 C180 F1080
G1 X629.47 Y52.5 Z-0.748 A0 B0 C180 F1080
G1 X661.5 Y52.5 Z-0.748 A0 B0 C180 F2000
G1 X723.903 Y52.527 Z-0.748 A0 B0 C180 F2000
G1 X724 Y52.542 Z-0.748 A0 B0 C180 F2000
G1 X724.19 Y52.584 Z-0.748 A0 B0 C180 F2000
G1 X724.378 Y52.637 Z-0.748 A0 B0 C180 F2000
G1 X724.562 Y52.702 Z-0.748 A0 B0 C180 F2000
G1 X724.741 Y52.779 Z-0.748 A0 B0 C180 F2000
G1 X724.915 Y52.867 Z-0.748 A0 B0 C180 F2000
G1 X725.084 Y52.966 Z-0.748 A0 B0 C180 F2000
G1 X725.246 Y53.075 Z-0.748 A0 B0 C180 F2000
G1 X725.4 Y53.194 Z-0.748 A0 B0 C180 F2000
G1 X725.547 Y53.322 Z-0.748 A0 B0 C180 F2000
G1 X725.685 Y53.46 Z-0.748 A0 B0 C180 F2000
G1 X725.814 Y53.606 Z-0.748 A0 B0 C180 F2000
G1 X725.934 Y53.76 Z-0.748 A0 B0 C180 F2000
G1 X726.044 Y53.921 Z-0.748 A0 B0 C180 F2000
G1 X726.144 Y54.089 Z-0.748 A0 B0 C180 F2000
G1 X726.233 Y54.262 Z-0.748 A0 B0 C180 F2000
G1 X726.272 Y54.352 Z-0.748 A0 B0 C180 F2000
G1 X726.308 Y54.45 Z-0.748 A0 B0 C180 F2000
G1 X726.371 Y54.649 Z-0.748 A0 B0 C180 F2000
G1 X726.422 Y54.851 Z-0.748 A0 B0 C180 F2000
G1 X726.462 Y55.055 Z-0.748 A0 B0 C180 F2000
G1 X726.491 Y55.262 Z-0.748 A0 B0 C180 F2000
G1 X726.508 Y55.47 Z-0.748 A0 B0 C180 F2000
G1 X726.514 Y55.678 Z-0.748 A0 B0 C180 F2000
G1 X726.509 Y55.887 Z-0.748 A0 B0 C180 F2000
G1 X726.5 Y55.991 Z-0.748 A0 B0 C180 F2000
G1 X726.473 Y139.903 Z-0.748 A0 B0 C180 F2000
G1 X726.458 Y140 Z-0.748 A0 B0 C180 F2000
G1 X726.416 Y140.19 Z-0.748 A0 B0 C180 F2000
G1 X726.363 Y140.378 Z-0.748 A0 B0 C180 F2000
G1 X726.298 Y140.562 Z-0.748 A0 B0 C180 F2000
G1 X726.221 Y140.741 Z-0.748 A0 B0 C180 F2000
G1 X726.133 Y140.915 Z-0.748 A0 B0 C180 F2000
G1 X726.034 Y141.084 Z-0.748 A0 B0 C180 F2000
G1 X725.925 Y141.246 Z-0.748 A0 B0 C180 F2000
G1 X725.806 Y141.4 Z-0.748 A0 B0 C180 F2000
G1 X725.678 Y141.547 Z-0.748 A0 B0 C180 F2000
G1 X725.54 Y141.685 Z-0.748 A0 B0 C180 F2000
G1 X725.394 Y141.814 Z-0.748 A0 B0 C180 F2000
G1 X725.24 Y141.934 Z-0.748 A0 B0 C180 F2000
G1 X725.079 Y142.044 Z-0.748 A0 B0 C180 F2000
G1 X724.911 Y142.144 Z-0.748 A0 B0 C180 F2000
G1 X724.738 Y142.233 Z-0.748 A0 B0 C180 F2000
G1 X724.648 Y142.272 Z-0.748 A0 B0 C180 F2000
G1 X724.536 Y142.312 Z-0.748 A0 B0 C180 F2000
G1 X724.308 Y142.381 Z-0.748 A0 B0 C180 F2000
G1 X724.077 Y142.436 Z-0.748 A0 B0 C180 F2000
G1 X723.843 Y142.478 Z-0.748 A0 B0 C180 F2000
G1 X723.607 Y142.507 Z-0.748 A0 B0 C180 F2000
G1 X723.369 Y142.522 Z-0.748 A0 B0 C180 F2000
G1 X723.132 Y142.524 Z-0.748 A0 B0 C180 F2000
G1 X722.894 Y142.513 Z-0.748 A0 B0 C180 F2000
G1 X722.776 Y142.5 Z-0.748 A0 B0 C180 F2000
G1 X599.097 Y142.473 Z-0.748 A0 B0 C180 F2000
G1 X599 Y142.458 Z-0.748 A0 B0 C180 F2000
G1 X598.81 Y142.416 Z-0.748 A0 B0 C180 F2000
G1 X598.622 Y142.363 Z-0.748 A0 B0 C180 F2000
G1 X598.438 Y142.298 Z-0.748 A0 B0 C180 F2000
G1 X598.259 Y142.221 Z-0.748 A0 B0 C180 F2000
G1 X598.085 Y142.133 Z-0.748 A0 B0 C180 F2000
G1 X597.916 Y142.034 Z-0.748 A0 B0 C180 F2000
G1 X597.754 Y141.925 Z-0.748 A0 B0 C180 F2000
G1 X597.6 Y141.806 Z-0.748 A0 B0 C180 F2000
G1 X597.453 Y141.678 Z-0.748 A0 B0 C180 F2000
G1 X597.315 Y141.54 Z-0.748 A0 B0 C180 F2000
G1 X597.185 Y141.394 Z-0.748 A0 B0 C180 F2000
G1 X597.066 Y141.24 Z-0.748 A0 B0 C180 F2000
G1 X596.956 Y141.079 Z-0.748 A0 B0 C180 F2000
G1 X596.856 Y140.911 Z-0.748 A0 B0 C180 F2000
G1 X596.767 Y140.738 Z-0.748 A0 B0 C180 F2000
G1 X596.728 Y140.648 Z-0.748 A0 B0 C180 F2000
G1 X596.692 Y140.55 Z-0.748 A0 B0 C180 F2000
G1 X596.629 Y140.351 Z-0.748 A0 B0 C180 F2000
G1 X596.578 Y140.149 Z-0.748 A0 B0 C180 F2000
G1 X596.538 Y139.945 Z-0.748 A0 B0 C180 F2000
G1 X596.509 Y139.738 Z-0.748 A0 B0 C180 F2000
G1 X596.492 Y139.53 Z-0.748 A0 B0 C180 F2000
G1 X596.486 Y139.322 Z-0.748 A0 B0 C180 F2000
G1 X596.491 Y139.113 Z-0.748 A0 B0 C180 F2000
G1 X596.5 Y139.009 Z-0.748 A0 B0 C180 F2000
G1 X596.527 Y55.097 Z-0.748 A0 B0 C180 F2000
G1 X596.542 Y55 Z-0.748 A0 B0 C180 F2000
G1 X596.584 Y54.81 Z-0.748 A0 B0 C180 F2000
G1 X596.637 Y54.622 Z-0.748 A0 B0 C180 F2000
G1 X596.702 Y54.438 Z-0.748 A0 B0 C180 F2000
G1 X596.779 Y54.259 Z-0.748 A0 B0 C180 F2000
G1 X596.867 Y54.085 Z-0.748 A0 B0 C180 F2000
G1 X596.966 Y53.916 Z-0.748 A0 B0 C180 F2000
G1 X597.075 Y53.754 Z-0.748 A0 B0 C180 F2000
G1 X597.194 Y53.6 Z-0.748 A0 B0 C180 F2000
G1 X597.322 Y53.453 Z-0.748 A0 B0 C180 F2000
G1 X597.46 Y53.315 Z-0.748 A0 B0 C180 F2000
G1 X597.606 Y53.186 Z-0.748 A0 B0 C180 F2000
G1 X597.76 Y53.066 Z-0.748 A0 B0 C180 F2000
G1 X597.921 Y52.956 Z-0.748 A0 B0 C180 F2000
G1 X598.089 Y52.856 Z-0.748 A0 B0 C180 F2000
G1 X598.262 Y52.767 Z-0.748 A0 B0 C180 F2000
G1 X598.352 Y52.728 Z-0.748 A0 B0 C180 F2000
G1 X598.464 Y52.688 Z-0.748 A0 B0 C180 F2000
G1 X598.692 Y52.619 Z-0.748 A0 B0 C180 F2000
G1 X598.923 Y52.564 Z-0.748 A0 B0 C180 F2000
G1 X599.157 Y52.522 Z-0.748 A0 B0 C180 F2000
G1 X599.393 Y52.493 Z-0.748 A0 B0 C180 F2000
G1 X599.631 Y52.478 Z-0.748 A0 B0 C180 F2000
G1 X599.868 Y52.476 Z-0.748 A0 B0 C180 F2000
G1 X600.106 Y52.487 Z-0.748 A0 B0 C180 F2000
G1 X600.224 Y52.5 Z-0.748 A0 B0 C180 F2000
G1 X629.47 Y52.5 Z-0.748 A0 B0 C180 F2000
G1 X629.559 Y52.5 Z-0.761 A0 B0 C180 F1080
G1 X629.732 Y52.5 Z-0.807 A0 B0 C180 F1080
G1 X629.9 Y52.501 Z-0.87 A0 B0 C180 F1080
G1 X630.06 Y52.501 Z-0.951 A0 B0 C180 F1080
G1 X630.136 Y52.501 Z-1 A0 B0 C180 F1080
G1 X630.367 Y52.5 Z-1.047 A0 B0 C180 F1080
G1 X661.5 Y52.5 Z-1.047 A0 B0 C180 F2000
G1 X723.947 Y52.533 Z-1.047 A0 B0 C180 F2000
G1 X724.027 Y52.55 Z-1.047 A0 B0 C180 F2000
G1 X724.186 Y52.59 Z-1.047 A0 B0 C180 F2000
G1 X724.342 Y52.638 Z-1.047 A0 B0 C180 F2000
G1 X724.496 Y52.693 Z-1.047 A0 B0 C180 F2000
G1 X724.648 Y52.756 Z-1.047 A0 B0 C180 F2000
G1 X724.795 Y52.826 Z-1.047 A0 B0 C180 F2000
G1 X724.94 Y52.904 Z-1.047 A0 B0 C180 F2000
G1 X725.08 Y52.988 Z-1.047 A0 B0 C180 F2000
G1 X725.216 Y53.079 Z-1.047 A0 B0 C180 F2000
G1 X725.348 Y53.176 Z-1.047 A0 B0 C180 F2000
G1 X725.474 Y53.28 Z-1.047 A0 B0 C180 F2000
G1 X725.596 Y53.39 Z-1.047 A0 B0 C180 F2000
G1 X725.712 Y53.505 Z-1.047 A0 B0 C180 F2000
G1 X725.822 Y53.626 Z-1.047 A0 B0 C180 F2000
G1 X725.926 Y53.753 Z-1.047 A0 B0 C180 F2000
G1 X726.024 Y53.884 Z-1.047 A0 B0 C180 F2000
G1 X726.07 Y53.952 Z-1.047 A0 B0 C180 F2000
G1 X726.14 Y54.078 Z-1.047 A0 B0 C180 F2000
G1 X726.261 Y54.341 Z-1.047 A0 B0 C180 F2000
G1 X726.36 Y54.614 Z-1.047 A0 B0 C180 F2000
G1 X726.437 Y54.893 Z-1.047 A0 B0 C180 F2000
G1 X726.492 Y55.177 Z-1.047 A0 B0 C180 F2000
G1 X726.524 Y55.465 Z-1.047 A0 B0 C180 F2000
G1 X726.533 Y55.754 Z-1.047 A0 B0 C180 F2000
G1 X726.519 Y56.043 Z-1.047 A0 B0 C180 F2000
G1 X726.5 Y56.187 Z-1.047 A0 B0 C180 F2000
G1 X726.466 Y139.947 Z-1.047 A0 B0 C180 F2000
G1 X726.451 Y140.025 Z-1.047 A0 B0 C180 F2000
G1 X726.411 Y140.179 Z-1.047 A0 B0 C180 F2000
G1 X726.365 Y140.332 Z-1.047 A0 B0 C180 F2000
G1 X726.311 Y140.482 Z-1.047 A0 B0 C180 F2000
G1 X726.251 Y140.629 Z-1.047 A0 B0 C180 F2000
G1 X726.184 Y140.774 Z-1.047 A0 B0 C180 F2000
G1 X726.11 Y140.915 Z-1.047 A0 B0 C180 F2000
G1 X726.029 Y141.052 Z-1.047 A0 B0 C180 F2000
G1 X725.942 Y141.186 Z-1.047 A0 B0 C180 F2000
G1 X725.849 Y141.315 Z-1.047 A0 B0 C180 F2000
G1 X725.75 Y141.44 Z-1.047 A0 B0 C180 F2000
G1 X725.645 Y141.56 Z-1.047 A0 B0 C180 F2000
G1 X725.535 Y141.675 Z-1.047 A0 B0 C180 F2000
G1 X725.419 Y141.784 Z-1.047 A0 B0 C180 F2000
G1 X725.298 Y141.888 Z-1.047 A0 B0 C180 F2000
G1 X725.173 Y141.987 Z-1.047 A0 B0 C180 F2000
G1 X725.108 Y142.033 Z-1.047 A0 B0 C180 F2000
G1 X725.018 Y142.09 Z-1.047 A0 B0 C180 F2000
G1 X724.832 Y142.19 Z-1.047 A0 B0 C180 F2000
G1 X724.638 Y142.278 Z-1.047 A0 B0 C180 F2000
G1 X724.439 Y142.351 Z-1.047 A0 B0 C180 F2000
G1 X724.235 Y142.41 Z-1.047 A0 B0 C180 F2000
G1 X724.028 Y142.455 Z-1.047 A0 B0 C180 F2000
G1 X723.818 Y142.485 Z-1.047 A0 B0 C180 F2000
G1 X723.606 Y142.5 Z-1.047 A0 B0 C180 F2000
G1 X723.5 Y142.5 Z-1.047 A0 B0 C180 F2000
G1 X599.053 Y142.467 Z-1.047 A0 B0 C180 F2000
G1 X598.975 Y142.451 Z-1.047 A0 B0 C180 F2000
G1 X598.82 Y142.411 Z-1.047 A0 B0 C180 F2000
G1 X598.668 Y142.365 Z-1.047 A0 B0 C180 F2000
G1 X598.518 Y142.311 Z-1.047 A0 B0 C180 F2000
G1 X598.371 Y142.251 Z-1.047 A0 B0 C180 F2000
G1 X598.226 Y142.184 Z-1.047 A0 B0 C180 F2000
G1 X598.085 Y142.11 Z-1.047 A0 B0 C180 F2000
G1 X597.948 Y142.029 Z-1.047 A0 B0 C180 F2000
G1 X597.814 Y141.942 Z-1.047 A0 B0 C180 F2000
G1 X597.685 Y141.849 Z-1.047 A0 B0 C180 F2000
G1 X597.56 Y141.75 Z-1.047 A0 B0 C180 F2000
G1 X597.44 Y141.645 Z-1.047 A0 B0 C180 F2000
G1 X597.325 Y141.535 Z-1.047 A0 B0 C180 F2000
G1 X597.216 Y141.419 Z-1.047 A0 B0 C180 F2000
G1 X597.112 Y141.298 Z-1.047 A0 B0 C180 F2000
G1 X597.013 Y141.173 Z-1.047 A0 B0 C180 F2000
G1 X596.967 Y141.108 Z-1.047 A0 B0 C180 F2000
G1 X596.892 Y140.979 Z-1.047 A0 B0 C180 F2000
G1 X596.762 Y140.711 Z-1.047 A0 B0 C180 F2000
G1 X596.655 Y140.432 Z-1.047 A0 B0 C180 F2000
G1 X596.571 Y140.146 Z-1.047 A0 B0 C180 F2000
G1 X596.512 Y139.853 Z-1.047 A0 B0 C180 F2000
G1 X596.477 Y139.557 Z-1.047 A0 B0 C180 F2000
G1 X596.466 Y139.259 Z-1.047 A0 B0 C180 F2000
G1 X596.481 Y138.961 Z-1.047 A0 B0 C180 F2000
G1 X596.5 Y138.813 Z-1.047 A0 B0 C180 F2000
G1 X596.533 Y55.053 Z-1.047 A0 B0 C180 F2000
G1 X596.55 Y54.973 Z-1.047 A0 B0 C180 F2000
G1 X596.59 Y54.814 Z-1.047 A0 B0 C180 F2000
G1 X596.638 Y54.658 Z-1.047 A0 B0 C180 F2000
G1 X596.693 Y54.504 Z-1.047 A0 B0 C180 F2000
G1 X596.756 Y54.352 Z-1.047 A0 B0 C180 F2000
G1 X596.826 Y54.205 Z-1.047 A0 B0 C180 F2000
G1 X596.904 Y54.06 Z-1.047 A0 B0 C180 F2000
G1 X596.988 Y53.92 Z-1.047 A0 B0 C180 F2000
G1 X597.079 Y53.784 Z-1.047 A0 B0 C180 F2000
G1 X597.176 Y53.652 Z-1.047 A0 B0 C180 F2000
G1 X597.28 Y53.526 Z-1.047 A0 B0 C180 F2000
G1 X597.39 Y53.404 Z-1.047 A0 B0 C180 F2000
G1 X597.505 Y53.288 Z-1.047 A0 B0 C180 F2000
G1 X597.626 Y53.178 Z-1.047 A0 B0 C180 F2000
G1 X597.753 Y53.074 Z-1.047 A0 B0 C180 F2000
G1 X597.884 Y52.976 Z-1.047 A0 B0 C180 F2000
G1 X597.952 Y52.93 Z-1.047 A0 B0 C180 F2000
G1 X598.039 Y52.878 Z-1.047 A0 B0 C180 F2000
G1 X598.22 Y52.785 Z-1.047 A0 B0 C180 F2000
G1 X598.407 Y52.704 Z-1.047 A0 B0 C180 F2000
G1 X598.599 Y52.637 Z-1.047 A0 B0 C180 F2000
G1 X598.795 Y52.582 Z-1.047 A0 B0 C180 F2000
G1 X598.994 Y52.541 Z-1.047 A0 B0 C180 F2000
G1 X599.195 Y52.514 Z-1.047 A0 B0 C180 F2000
G1 X599.398 Y52.5 Z-1.047 A0 B0 C180 F2000
G1 X599.5 Y52.5 Z-1.047 A0 B0 C180 F2000
G1 X630.367 Y52.5 Z-1.047 A0 B0 C180 F2000
G1 X630.456 Y52.5 Z-1.06 A0 B0 C180 F1080
G1 X630.629 Y52.5 Z-1.106 A0 B0 C180 F1080
G1 X630.797 Y52.501 Z-1.17 A0 B0 C180 F1080

G1 X630.958 Y52.501 Z-1.25 A0 B0 C180 F1080
G1 X631.033 Y52.501 Z-1.299 A0 B0 C180 F1080
G1 X631.264 Y52.5 Z-1.346 A0 B0 C180 F1080
G1 X661.5 Y52.5 Z-1.346 A0 B0 C180 F2000
G1 X723.596 Y52.502 Z-1.346 A0 B0 C180 F2000
G1 X723.73 Y52.513 Z-1.346 A0 B0 C180 F2000
G1 X723.996 Y52.557 Z-1.346 A0 B0 C180 F2000
G1 X724.257 Y52.621 Z-1.346 A0 B0 C180 F2000
G1 X724.512 Y52.705 Z-1.346 A0 B0 C180 F2000
G1 X724.761 Y52.808 Z-1.346 A0 B0 C180 F2000
G1 X725 Y52.929 Z-1.346 A0 B0 C180 F2000
G1 X725.23 Y53.069 Z-1.346 A0 B0 C180 F2000
G1 X725.449 Y53.225 Z-1.346 A0 B0 C180 F2000
G1 X725.552 Y53.312 Z-1.346 A0 B0 C180 F2000
G1 X725.653 Y53.418 Z-1.346 A0 B0 C180 F2000
G1 X725.836 Y53.646 Z-1.346 A0 B0 C180 F2000
G1 X725.999 Y53.889 Z-1.346 A0 B0 C180 F2000
G1 X726.142 Y54.144 Z-1.346 A0 B0 C180 F2000
G1 X726.263 Y54.411 Z-1.346 A0 B0 C180 F2000
G1 X726.36 Y54.687 Z-1.346 A0 B0 C180 F2000
G1 X726.435 Y54.97 Z-1.346 A0 B0 C180 F2000
G1 X726.485 Y55.258 Z-1.346 A0 B0 C180 F2000
G1 X726.498 Y55.404 Z-1.346 A0 B0 C180 F2000
G1 X726.502 Y60.487 Z-1.346 A0 B0 C180 F2000
G1 X726.5 Y65.571 Z-1.346 A0 B0 C180 F2000
G1 X726.498 Y139.596 Z-1.346 A0 B0 C180 F2000
G1 X726.485 Y139.73 Z-1.346 A0 B0 C180 F2000
G1 X726.439 Y139.995 Z-1.346 A0 B0 C180 F2000
G1 X726.374 Y140.255 Z-1.346 A0 B0 C180 F2000
G1 X726.29 Y140.51 Z-1.346 A0 B0 C180 F2000
G1 X726.187 Y140.758 Z-1.346 A0 B0 C180 F2000
G1 X726.066 Y140.998 Z-1.346 A0 B0 C180 F2000
G1 X725.928 Y141.229 Z-1.346 A0 B0 C180 F2000
G1 X725.774 Y141.448 Z-1.346 A0 B0 C180 F2000
G1 X725.688 Y141.552 Z-1.346 A0 B0 C180 F2000
G1 X725.582 Y141.653 Z-1.346 A0 B0 C180 F2000
G1 X725.354 Y141.836 Z-1.346 A0 B0 C180 F2000
G1 X725.111 Y141.999 Z-1.346 A0 B0 C180 F2000
G1 X724.856 Y142.142 Z-1.346 A0 B0 C180 F2000
G1 X724.589 Y142.263 Z-1.346 A0 B0 C180 F2000
G1 X724.313 Y142.36 Z-1.346 A0 B0 C180 F2000
G1 X724.03 Y142.435 Z-1.346 A0 B0 C180 F2000
G1 X723.742 Y142.485 Z-1.346 A0 B0 C180 F2000
G1 X723.596 Y142.498 Z-1.346 A0 B0 C180 F2000
G1 X718.704 Y142.502 Z-1.346 A0 B0 C180 F2000
G1 X713.812 Y142.5 Z-1.346 A0 B0 C180 F2000
G1 X599.404 Y142.498 Z-1.346 A0 B0 C180 F2000
G1 X599.27 Y142.487 Z-1.346 A0 B0 C180 F2000
G1 X599.004 Y142.443 Z-1.346 A0 B0 C180 F2000
G1 X598.743 Y142.379 Z-1.346 A0 B0 C180 F2000
G1 X598.488 Y142.295 Z-1.346 A0 B0 C180 F2000
G1 X598.239 Y142.192 Z-1.346 A0 B0 C180 F2000
G1 X597.999 Y142.071 Z-1.346 A0 B0 C180 F2000
G1 X597.77 Y141.931 Z-1.346 A0 B0 C180 F2000
G1 X597.551 Y141.775 Z-1.346 A0 B0 C180 F2000
G1 X597.448 Y141.688 Z-1.346 A0 B0 C180 F2000
G1 X597.347 Y141.582 Z-1.346 A0 B0 C180 F2000
G1 X597.165 Y141.353 Z-1.346 A0 B0 C180 F2000
G1 X597.002 Y141.11 Z-1.346 A0 B0 C180 F2000
G1 X596.86 Y140.855 Z-1.346 A0 B0 C180 F2000
G1 X596.739 Y140.588 Z-1.346 A0 B0 C180 F2000
G1 X596.641 Y140.313 Z-1.346 A0 B0 C180 F2000
G1 X596.566 Y140.03 Z-1.346 A0 B0 C180 F2000
G1 X596.515 Y139.742 Z-1.346 A0 B0 C180 F2000
G1 X596.502 Y139.596 Z-1.346 A0 B0 C180 F2000
G1 X596.498 Y134.513 Z-1.346 A0 B0 C180 F2000
G1 X596.5 Y129.429 Z-1.346 A0 B0 C180 F2000
G1 X596.502 Y55.404 Z-1.346 A0 B0 C180 F2000
G1 X596.515 Y55.27 Z-1.346 A0 B0 C180 F2000
G1 X596.561 Y55.005 Z-1.346 A0 B0 C180 F2000
G1 X596.626 Y54.745 Z-1.346 A0 B0 C180 F2000
G1 X596.71 Y54.49 Z-1.346 A0 B0 C180 F2000
G1 X596.813 Y54.242 Z-1.346 A0 B0 C180 F2000
G1 X596.934 Y54.002 Z-1.346 A0 B0 C180 F2000
G1 X597.072 Y53.771 Z-1.346 A0 B0 C180 F2000
G1 X597.226 Y53.552 Z-1.346 A0 B0 C180 F2000
G1 X597.312 Y53.448 Z-1.346 A0 B0 C180 F2000
G1 X597.401 Y53.365 Z-1.346 A0 B0 C180 F2000
G1 X597.589 Y53.21 Z-1.346 A0 B0 C180 F2000
G1 X597.787 Y53.068 Z-1.346 A0 B0 C180 F2000
G1 X597.994 Y52.94 Z-1.346 A0 B0 C180 F2000
G1 X598.208 Y52.825 Z-1.346 A0 B0 C180 F2000
G1 X598.43 Y52.725 Z-1.346 A0 B0 C180 F2000
G1 X598.658 Y52.639 Z-1.346 A0 B0 C180 F2000
G1 X598.891 Y52.568 Z-1.346 A0 B0 C180 F2000
G1 X599.01 Y52.54 Z-1.346 A0 B0 C180 F2000
G1 X603.041 Y52.519 Z-1.346 A0 B0 C180 F2000
G1 X611.105 Y52.492 Z-1.346 A0 B0 C180 F2000
G1 X619.169 Y52.482 Z-1.346 A0 B0 C180 F2000
G1 X627.232 Y52.488 Z-1.346 A0 B0 C180 F2000
G1 X631.264 Y52.5 Z-1.346 A0 B0 C180 F2000
G1 X631.353 Y52.5 Z-1.359 A0 B0 C180 F1080
G1 X631.527 Y52.5 Z-1.405 A0 B0 C180 F1080
G1 X631.695 Y52.501 Z-1.469 A0 B0 C180 F1080
G1 X631.855 Y52.501 Z-1.549 A0 B0 C180 F1080
G1 X631.93 Y52.501 Z-1.598 A0 B0 C180 F1080
G1 X632.161 Y52.5 Z-1.645 A0 B0 C180 F1080
G1 X661.5 Y52.5 Z-1.645 A0 B0 C180 F2000
G1 X723.914 Y52.529 Z-1.645 A0 B0 C180 F2000
G1 X724.032 Y52.555 Z-1.645 A0 B0 C180 F2000
G1 X724.263 Y52.622 Z-1.645 A0 B0 C180 F2000
G1 X724.49 Y52.702 Z-1.645 A0 B0 C180 F2000
G1 X724.712 Y52.796 Z-1.645 A0 B0 C180 F2000
G1 X724.927 Y52.903 Z-1.645 A0 B0 C180 F2000
G1 X725.136 Y53.024 Z-1.645 A0 B0 C180 F2000
G1 X725.337 Y53.156 Z-1.645 A0 B0 C180 F2000
G1 X725.53 Y53.301 Z-1.645 A0 B0 C180 F2000
G1 X725.621 Y53.379 Z-1.645 A0 B0 C180 F2000
G1 X725.718 Y53.488 Z-1.645 A0 B0 C180 F2000
G1 X725.892 Y53.723 Z-1.645 A0 B0 C180 F2000
G1 X726.047 Y53.971 Z-1.645 A0 B0 C180 F2000
G1 X726.181 Y54.231 Z-1.645 A0 B0 C180 F2000
G1 X726.293 Y54.502 Z-1.645 A0 B0 C180 F2000
G1 X726.382 Y54.78 Z-1.645 A0 B0 C180 F2000
G1 X726.448 Y55.065 Z-1.645 A0 B0 C180 F2000
G1 X726.491 Y55.354 Z-1.645 A0 B0 C180 F2000
G1 X726.5 Y55.5 Z-1.645 A0 B0 C180 F2000
G1 X726.471 Y139.914 Z-1.645 A0 B0 C180 F2000
G1 X726.445 Y140.032 Z-1.645 A0 B0 C180 F2000
G1 X726.378 Y140.263 Z-1.645 A0 B0 C180 F2000
G1 X726.298 Y140.49 Z-1.645 A0 B0 C180 F2000
G1 X726.204 Y140.712 Z-1.645 A0 B0 C180 F2000
G1 X726.097 Y140.927 Z-1.645 A0 B0 C180 F2000
G1 X725.976 Y141.136 Z-1.645 A0 B0 C180 F2000
G1 X725.844 Y141.337 Z-1.645 A0 B0 C180 F2000
G1 X725.699 Y141.53 Z-1.645 A0 B0 C180 F2000
G1 X725.621 Y141.621 Z-1.645 A0 B0 C180 F2000
G1 X725.513 Y141.72 Z-1.645 A0 B0 C180 F2000
G1 X725.28 Y141.898 Z-1.645 A0 B0 C180 F2000
G1 X725.033 Y142.055 Z-1.645 A0 B0 C180 F2000
G1 X724.773 Y142.191 Z-1.645 A0 B0 C180 F2000
G1 X724.502 Y142.303 Z-1.645 A0 B0 C180 F2000
G1 X724.223 Y142.391 Z-1.645 A0 B0 C180 F2000
G1 X723.937 Y142.455 Z-1.645 A0 B0 C180 F2000
G1 X723.646 Y142.493 Z-1.645 A0 B0 C180 F2000
G1 X723.5 Y142.5 Z-1.645 A0 B0 C180 F2000
G1 X599.086 Y142.471 Z-1.645 A0 B0 C180 F2000
G1 X598.968 Y142.445 Z-1.645 A0 B0 C180 F2000
G1 X598.737 Y142.378 Z-1.645 A0 B0 C180 F2000
G1 X598.51 Y142.298 Z-1.645 A0 B0 C180 F2000
G1 X598.288 Y142.204 Z-1.645 A0 B0 C180 F2000
G1 X598.073 Y142.097 Z-1.645 A0 B0 C180 F2000
G1 X597.864 Y141.976 Z-1.645 A0 B0 C180 F2000
G1 X597.663 Y141.844 Z-1.645 A0 B0 C180 F2000
G1 X597.47 Y141.699 Z-1.645 A0 B0 C180 F2000
G1 X597.379 Y141.621 Z-1.645 A0 B0 C180 F2000
G1 X597.306 Y141.535 Z-1.645 A0 B0 C180 F2000
G1 X597.17 Y141.355 Z-1.645 A0 B0 C180 F2000
G1 X597.044 Y141.167 Z-1.645 A0 B0 C180 F2000
G1 X596.929 Y140.973 Z-1.645 A0 B0 C180 F2000
G1 X596.824 Y140.773 Z-1.645 A0 B0 C180 F2000
G1 X596.73 Y140.568 Z-1.645 A0 B0 C180 F2000
G1 X596.648 Y140.357 Z-1.645 A0 B0 C180 F2000
G1 X596.577 Y140.143 Z-1.645 A0 B0 C180 F2000
G1 X596.548 Y140.034 Z-1.645 A0 B0 C180 F2000
G1 X596.519 Y138.327 Z-1.645 A0 B0 C180 F2000
G1 X596.484 Y134.912 Z-1.645 A0 B0 C180 F2000
G1 X596.472 Y131.497 Z-1.645 A0 B0 C180 F2000
G1 X596.483 Y128.082 Z-1.645 A0 B0 C180 F2000
G1 X596.5 Y126.375 Z-1.645 A0 B0 C180 F2000
G1 X596.529 Y55.086 Z-1.645 A0 B0 C180 F2000
G1 X596.555 Y54.968 Z-1.645 A0 B0 C180 F2000
G1 X596.622 Y54.737 Z-1.645 A0 B0 C180 F2000
G1 X596.702 Y54.51 Z-1.645 A0 B0 C180 F2000
G1 X596.796 Y54.288 Z-1.645 A0 B0 C180 F2000
G1 X596.903 Y54.073 Z-1.645 A0 B0 C180 F2000
G1 X597.024 Y53.864 Z-1.645 A0 B0 C180 F2000
G1 X597.156 Y53.663 Z-1.645 A0 B0 C180 F2000
G1 X597.301 Y53.47 Z-1.645 A0 B0 C180 F2000
G1 X597.379 Y53.379 Z-1.645 A0 B0 C180 F2000
G1 X597.465 Y53.306 Z-1.645 A0 B0 C180 F2000
G1 X597.646 Y53.17 Z-1.645 A0 B0 C180 F2000
G1 X597.833 Y53.045 Z-1.645 A0 B0 C180 F2000
G1 X598.027 Y52.929 Z-1.645 A0 B0 C180 F2000
G1 X598.227 Y52.825 Z-1.645 A0 B0 C180 F2000
G1 X598.433 Y52.731 Z-1.645 A0 B0 C180 F2000
G1 X598.643 Y52.648 Z-1.645 A0 B0 C180 F2000
G1 X598.857 Y52.577 Z-1.645 A0 B0 C180 F2000
G1 X598.966 Y52.548 Z-1.645 A0 B0 C180 F2000
G1 X599.12 Y52.53 Z-1.645 A0 B0 C180 F2000
G1 X599.428 Y52.503 Z-1.645 A0 B0 C180 F2000
G1 X599.737 Y52.482 Z-1.645 A0 B0 C180 F2000
G1 X600.046 Y52.469 Z-1.645 A0 B0 C180 F2000
G1 X600.355 Y52.463 Z-1.645 A0 B0 C180 F2000
G1 X600.665 Y52.464 Z-1.645 A0 B0 C180 F2000
G1 X600.974 Y52.473 Z-1.645 A0 B0 C180 F2000
G1 X601.283 Y52.488 Z-1.645 A0 B0 C180 F2000
G1 X601.437 Y52.5 Z-1.645 A0 B0 C180 F2000
G1 X632.161 Y52.5 Z-1.645 A0 B0 C180 F2000
G1 X632.25 Y52.5 Z-1.658 A0 B0 C180 F1080
G1 X632.424 Y52.5 Z-1.704 A0 B0 C180 F1080
G1 X632.592 Y52.501 Z-1.768 A0 B0 C180 F1080
G1 X632.752 Y52.501 Z-1.849 A0 B0 C180 F1080
G1 X632.827 Y52.501 Z-1.897 A0 B0 C180 F1080
G1 X633.059 Y52.5 Z-1.944 A0 B0 C180 F1080
G1 X661.5 Y52.5 Z-1.944 A0 B0 C180 F2000
G1 X723.936 Y52.532 Z-1.944 A0 B0 C180 F2000
G1 X724.088 Y52.564 Z-1.944 A0 B0 C180 F2000
G1 X724.384 Y52.655 Z-1.944 A0 B0 C180 F2000
G1 X724.671 Y52.772 Z-1.944 A0 B0 C180 F2000
G1 X724.947 Y52.913 Z-1.944 A0 B0 C180 F2000
G1 X725.21 Y53.079 Z-1.944 A0 B0 C180 F2000
G1 X725.456 Y53.266 Z-1.944 A0 B0 C180 F2000
G1 X725.685 Y53.475 Z-1.944 A0 B0 C180 F2000
G1 X725.895 Y53.704 Z-1.944 A0 B0 C180 F2000
G1 X725.99 Y53.826 Z-1.944 A0 B0 C180 F2000
G1 X726.065 Y53.957 Z-1.944 A0 B0 C180 F2000
G1 X726.194 Y54.228 Z-1.944 A0 B0 C180 F2000
G1 X726.303 Y54.508 Z-1.944 A0 B0 C180 F2000
G1 X726.39 Y54.796 Z-1.944 A0 B0 C180 F2000
G1 X726.455 Y55.09 Z-1.944 A0 B0 C180 F2000
G1 X726.497 Y55.387 Z-1.944 A0 B0 C180 F2000
G1 X726.517 Y55.687 Z-1.944 A0 B0 C180 F2000
G1 X726.513 Y55.988 Z-1.944 A0 B0 C180 F2000
G1 X726.5 Y56.138 Z-1.944 A0 B0 C180 F2000
G1 X726.468 Y139.936 Z-1.944 A0 B0 C180 F2000
G1 X726.444 Y140.067 Z-1.944 A0 B0 C180 F2000
G1 X726.375 Y140.322 Z-1.944 A0 B0 C180 F2000
G1 X726.284 Y140.572 Z-1.944 A0 B0 C180 F2000
G1 X726.173 Y140.812 Z-1.944 A0 B0 C180 F2000
G1 X726.041 Y141.042 Z-1.944 A0 B0 C180 F2000
G1 X725.89 Y141.261 Z-1.944 A0 B0 C180 F2000
G1 X725.722 Y141.465 Z-1.944 A0 B0 C180 F2000
G1 X725.537 Y141.655 Z-1.944 A0 B0 C180 F2000
G1 X725.336 Y141.828 Z-1.944 A0 B0 C180 F2000
G1 X725.121 Y141.984 Z-1.944 A0 B0 C180 F2000
G1 X724.894 Y142.121 Z-1.944 A0 B0 C180 F2000
G1 X724.656 Y142.238 Z-1.944 A0 B0 C180 F2000
G1 X724.41 Y142.335 Z-1.944 A0 B0 C180 F2000
G1 X724.155 Y142.41 Z-1.944 A0 B0 C180 F2000
G1 X723.896 Y142.464 Z-1.944 A0 B0 C180 F2000
G1 X723.632 Y142.495 Z-1.944 A0 B0 C180 F2000
G1 X723.5 Y142.5 Z-1.944 A0 B0 C180 F2000
G1 X599.064 Y142.468 Z-1.944 A0 B0 C180 F2000
G1 X598.912 Y142.436 Z-1.944 A0 B0 C180 F2000
G1 X598.615 Y142.346 Z-1.944 A0 B0 C180 F2000
G1 X598.328 Y142.23 Z-1.944 A0 B0 C180 F2000
G1 X598.052 Y142.088 Z-1.944 A0 B0 C180 F2000
G1 X597.789 Y141.923 Z-1.944 A0 B0 C180 F2000
G1 X597.543 Y141.735 Z-1.944 A0 B0 C180 F2000
G1 X597.314 Y141.525 Z-1.944 A0 B0 C180 F2000
G1 X597.104 Y141.297 Z-1.944 A0 B0 C180 F2000
G1 X597.01 Y141.174 Z-1.944 A0 B0 C180 F2000
G1 X596.934 Y141.044 Z-1.944 A0 B0 C180 F2000
G1 X596.803 Y140.773 Z-1.944 A0 B0 C180 F2000
G1 X596.693 Y140.493 Z-1.944 A0 B0 C180 F2000
G1 X596.606 Y140.205 Z-1.944 A0 B0 C180 F2000
G1 X596.541 Y139.911 Z-1.944 A0 B0 C180 F2000
G1 X596.499 Y139.613 Z-1.944 A0 B0 C180 F2000
G1 X596.481 Y139.313 Z-1.944 A0 B0 C180 F2000
G1 X596.486 Y139.012 Z-1.944 A0 B0 C180 F2000
G1 X596.5 Y138.862 Z-1.944 A0 B0 C180 F2000
G1 X596.532 Y55.064 Z-1.944 A0 B0 C180 F2000
G1 X596.556 Y54.933 Z-1.944 A0 B0 C180 F2000
G1 X596.625 Y54.678 Z-1.944 A0 B0 C180 F2000
G1 X596.716 Y54.428 Z-1.944 A0 B0 C180 F2000
G1 X596.827 Y54.188 Z-1.944 A0 B0 C180 F2000
G1 X596.959 Y53.958 Z-1.944 A0 B0 C180 F2000
G1 X597.11 Y53.739 Z-1.944 A0 B0 C180 F2000
G1 X597.278 Y53.535 Z-1.944 A0 B0 C180 F2000
G1 X597.463 Y53.345 Z-1.944 A0 B0 C180 F2000
G1 X597.664 Y53.172 Z-1.944 A0 B0 C180 F2000
G1 X597.879 Y53.016 Z-1.944 A0 B0 C180 F2000
G1 X598.106 Y52.879 Z-1.944 A0 B0 C180 F2000
G1 X598.343 Y52.762 Z-1.944 A0 B0 C180 F2000
G1 X598.59 Y52.665 Z-1.944 A0 B0 C180 F2000
G1 X598.845 Y52.59 Z-1.944 A0 B0 C180 F2000
G1 X599.104 Y52.536 Z-1.944 A0 B0 C180 F2000
G1 X599.367 Y52.505 Z-1.944 A0 B0 C180 F2000
G1 X599.5 Y52.5 Z-1.944 A0 B0 C180 F2000
G1 X633.059 Y52.5 Z-1.944 A0 B0 C180 F2000
G1 X633.147 Y52.5 Z-1.957 A0 B0 C180 F1080
G1 X633.321 Y52.5 Z-2.003 A0 B0 C180 F1080
G1 X633.489 Y52.501 Z-2.067 A0 B0 C180 F1080
G1 X633.649 Y52.501 Z-2.148 A0 B0 C180 F1080
G1 X633.725 Y52.501 Z-2.196 A0 B0 C180 F1080
G1 X633.956 Y52.5 Z-2.243 A0 B0 C180 F1080
G1 X661.5 Y52.5 Z-2.243 A0 B0 C180 F2000
G1 X723.887 Y52.525 Z-2.243 A0 B0 C180 F2000
G1 X724.014 Y52.544 Z-2.243 A0 B0 C180 F2000
G1 X724.264 Y52.603 Z-2.243 A0 B0 C180 F2000
G1 X724.508 Y52.683 Z-2.243 A0 B0 C180 F2000
G1 X724.745 Y52.782 Z-2.243 A0 B0 C180 F2000
G1 X724.972 Y52.901 Z-2.243 A0 B0 C180 F2000
G1 X725.189 Y53.039 Z-2.243 A0 B0 C180 F2000
G1 X725.393 Y53.194 Z-2.243 A0 B0 C180 F2000
G1 X725.584 Y53.366 Z-2.243 A0 B0 C180 F2000
G1 X725.76 Y53.553 Z-2.243 A0 B0 C180 F2000
G1 X725.919 Y53.754 Z-2.243 A0 B0 C180 F2000
G1 X726.061 Y53.968 Z-2.243 A0 B0 C180 F2000
G1 X726.185 Y54.193 Z-2.243 A0 B0 C180 F2000
G1 X726.29 Y54.427 Z-2.243 A0 B0 C180 F2000
G1 X726.375 Y54.67 Z-2.243 A0 B0 C180 F2000
G1 X726.439 Y54.918 Z-2.243 A0 B0 C180 F2000
G1 X726.482 Y55.171 Z-2.243 A0 B0 C180 F2000
G1 X726.493 Y55.299 Z-2.243 A0 B0 C180 F2000
G1 X726.502 Y60.928 Z-2.243 A0 B0 C180 F2000
G1 X726.505 Y72.184 Z-2.243 A0 B0 C180 F2000
G1 X726.5 Y77.813 Z-2.243 A0 B0 C180 F2000
G1 X726.475 Y139.887 Z-2.243 A0 B0 C180 F2000
G1 X726.456 Y140.014 Z-2.243 A0 B0 C180 F2000
G1 X726.397 Y140.264 Z-2.243 A0 B0 C180 F2000
G1 X726.317 Y140.508 Z-2.243 A0 B0 C180 F2000
G1 X726.218 Y140.745 Z-2.243 A0 B0 C180 F2000
G1 X726.099 Y140.972 Z-2.243 A0 B0 C180 F2000
G1 X725.961 Y141.189 Z-2.243 A0 B0 C180 F2000
G1 X725.806 Y141.393 Z-2.243 A0 B0 C180 F2000
G1 X725.634 Y141.584 Z-2.243 A0 B0 C180 F2000
G1 X725.447 Y141.76 Z-2.243 A0 B0 C180 F2000
G1 X725.246 Y141.919 Z-2.243 A0 B0 C180 F2000
G1 X725.032 Y142.061 Z-2.243 A0 B0 C180 F2000
G1 X724.807 Y142.185 Z-2.243 A0 B0 C180 F2000
G1 X724.573 Y142.29 Z-2.243 A0 B0 C180 F2000
G1 X724.33 Y142.375 Z-2.243 A0 B0 C180 F2000
G1 X724.082 Y142.439 Z-2.243 A0 B0 C180 F2000
G1 X723.829 Y142.482 Z-2.243 A0 B0 C180 F2000
G1 X723.701 Y142.493 Z-2.243 A0 B0 C180 F2000
G1 X717.838 Y142.503 Z-2.243 A0 B0 C180 F2000
G1 X706.113 Y142.506 Z-2.243 A0 B0 C180 F2000
G1 X700.25 Y142.5 Z-2.243 A0 B0 C180 F2000
G1 X599.113 Y142.475 Z-2.243 A0 B0 C180 F2000
G1 X598.986 Y142.456 Z-2.243 A0 B0 C180 F2000
G1 X598.736 Y142.397 Z-2.243 A0 B0 C180 F2000
G1 X598.492 Y142.317 Z-2.243 A0 B0 C180 F2000
G1 X598.255 Y142.218 Z-2.243 A0 B0 C180 F2000
G1 X598.028 Y142.099 Z-2.243 A0 B0 C180 F2000
G1 X597.811 Y141.961 Z-2.243 A0 B0 C180 F2000
G1 X597.607 Y141.806 Z-2.243 A0 B0 C180 F2000
G1 X597.416 Y141.634 Z-2.243 A0 B0 C180 F2000
G1 X597.24 Y141.447 Z-2.243 A0 B0 C180 F2000
G1 X597.081 Y141.246 Z-2.243 A0 B0 C180 F2000
G1 X596.939 Y141.032 Z-2.243 A0 B0 C180 F2000
G1 X596.815 Y140.807 Z-2.243 A0 B0 C180 F2000
G1 X596.71 Y140.573 Z-2.243 A0 B0 C180 F2000
G1 X596.625 Y140.33 Z-2.243 A0 B0 C180 F2000
G1 X596.561 Y140.082 Z-2.243 A0 B0 C180 F2000
G1 X596.518 Y139.829 Z-2.243 A0 B0 C180 F2000
G1 X596.507 Y139.701 Z-2.243 A0 B0 C180 F2000
G1 X596.498 Y134.072 Z-2.243 A0 B0 C180 F2000
G1 X596.495 Y122.816 Z-2.243 A0 B0 C180 F2000
G1 X596.5 Y117.188 Z-2.243 A0 B0 C180 F2000
G1 X596.525 Y55.113 Z-2.243 A0 B0 C180 F2000
G1 X596.544 Y54.986 Z-2.243 A0 B0 C180 F2000
G1 X596.603 Y54.736 Z-2.243 A0 B0 C180 F2000
G1 X596.683 Y54.492 Z-2.243 A0 B0 C180 F2000
G1 X596.782 Y54.255 Z-2.243 A0 B0 C180 F2000
G1 X596.901 Y54.028 Z-2.243 A0 B0 C180 F2000
G1 X597.039 Y53.811 Z-2.243 A0 B0 C180 F2000
G1 X597.194 Y53.607 Z-2.243 A0 B0 C180 F2000
G1 X597.366 Y53.416 Z-2.243 A0 B0 C180 F2000
G1 X597.553 Y53.24 Z-2.243 A0 B0 C180 F2000
G1 X597.754 Y53.081 Z-2.243 A0 B0 C180 F2000
G1 X597.968 Y52.939 Z-2.243 A0 B0 C180 F2000
G1 X598.193 Y52.815 Z-2.243 A0 B0 C180 F2000
G1 X598.427 Y52.71 Z-2.243 A0 B0 C180 F2000
G1 X598.67 Y52.625 Z-2.243 A0 B0 C180 F2000
G1 X598.918 Y52.561 Z-2.243 A0 B0 C180 F2000
G1 X599.171 Y52.518 Z-2.243 A0 B0 C180 F2000
G1 X599.299 Y52.507 Z-2.243 A0 B0 C180 F2000
G1 X605.162 Y52.497 Z-2.243 A0 B0 C180 F2000
G1 X616.887 Y52.494 Z-2.243 A0 B0 C180 F2000
G1 X622.75 Y52.5 Z-2.243 A0 B0 C180 F2000
G1 X633.956 Y52.5 Z-2.243 A0 B0 C180 F2000
G1 X634.045 Y52.5 Z-2.257 A0 B0 C180 F1080
G1 X634.218 Y52.5 Z-2.302 A0 B0 C180 F1080
G1 X634.386 Y52.501 Z-2.366 A0 B0 C180 F1080
G1 X634.546 Y52.501 Z-2.447 A0 B0 C180 F1080
G1 X634.622 Y52.501 Z-2.495 A0 B0 C180 F1080
G1 X634.853 Y52.5 Z-2.542 A0 B0 C180 F1080
G1 X661.5 Y52.5 Z-2.542 A0 B0 C180 F2000
G1 X723.928 Y52.531 Z-2.542 A0 B0 C180 F2000
G1 X724.045 Y52.55 Z-2.542 A0 B0 C180 F2000
G1 X724.275 Y52.606 Z-2.542 A0 B0 C180 F2000
G1 X724.5 Y52.68 Z-2.542 A0 B0 C180 F2000
G1 X724.718 Y52.77 Z-2.542 A0 B0 C180 F2000
G1 X724.929 Y52.877 Z-2.542 A0 B0 C180 F2000
G1 X725.132 Y53 Z-2.542 A0 B0 C180 F2000
G1 X725.324 Y53.138 Z-2.542 A0 B0 C180 F2000
G1 X725.505 Y53.291 Z-2.542 A0 B0 C180 F2000
G1 X725.674 Y53.457 Z-2.542 A0 B0 C180 F2000
G1 X725.829 Y53.635 Z-2.542 A0 B0 C180 F2000
G1 X725.971 Y53.825 Z-2.542 A0 B0 C180 F2000
G1 X726.097 Y54.025 Z-2.542 A0 B0 C180 F2000
G1 X726.208 Y54.234 Z-2.542 A0 B0 C180 F2000
G1 X726.303 Y54.451 Z-2.542 A0 B0 C180 F2000
G1 X726.38 Y54.675 Z-2.542 A0 B0 C180 F2000
G1 X726.44 Y54.904 Z-2.542 A0 B0 C180 F2000
G1 X726.461 Y55.02 Z-2.542 A0 B0 C180 F2000
G1 X726.484 Y61.479 Z-2.542 A0 B0 C180 F2000
G1 X726.511 Y74.396 Z-2.542 A0 B0 C180 F2000
G1 X726.52 Y87.312 Z-2.542 A0 B0 C180 F2000
G1 X726.512 Y100.229 Z-2.542 A0 B0 C180 F2000
G1 X726.5 Y106.688 Z-2.542 A0 B0 C180 F2000
G1 X726.469 Y139.928 Z-2.542 A0 B0 C180 F2000
G1 X726.45 Y140.045 Z-2.542 A0 B0 C180 F2000
G1 X726.394 Y140.275 Z-2.542 A0 B0 C180 F2000
G1 X726.32 Y140.5 Z-2.542 A0 B0 C180 F2000
G1 X726.23 Y140.718 Z-2.542 A0 B0 C180 F2000
G1 X726.123 Y140.929 Z-2.542 A0 B0 C180 F2000
GG1 X726 Y141.132 Z-2.542 A0 B0 C180 F2000
G1 X725.862 Y141.324 Z-2.542 A0 B0 C180 F2000
G1 X725.709 Y141.505 Z-2.542 A0 B0 C180 F2000
G1 X725.543 Y141.674 Z-2.542 A0 B0 C180 F2000
G1 X725.365 Y141.829 Z-2.542 A0 B0 C180 F2000
G1 X725.175 Y141.971 Z-2.542 A0 B0 C180 F2000
G1 X724.975 Y142.097 Z-2.542 A0 B0 C180 F2000
G1 X724.766 Y142.208 Z-2.542 A0 B0 C180 F2000
G1 X724.549 Y142.303 Z-2.542 A0 B0 C180 F2000
G1 X724.325 Y142.38 Z-2.542 A0 B0 C180 F2000
G1 X724.096 Y142.44 Z-2.542 A0 B0 C180 F2000
G1 X723.98 Y142.461 Z-2.542 A0 B0 C180 F2000
G1 X723.678 Y142.488 Z-2.542 A0 B0 C180 F2000
G1 X723.074 Y142.52 Z-2.542 A0 B0 C180 F2000
G1 X722.469 Y142.53 Z-2.542 A0 B0 C180 F2000
G1 X721.864 Y142.517 Z-2.542 A0 B0 C180 F2000
G1 X721.562 Y142.5 Z-2.542 A0 B0 C180 F2000
G1 X599.072 Y142.469 Z-2.542 A0 B0 C180 F2000
G1 X598.955 Y142.45 Z-2.542 A0 B0 C180 F2000
G1 X598.725 Y142.394 Z-2.542 A0 B0 C180 F2000
G1 X598.5 Y142.32 Z-2.542 A0 B0 C180 F2000
G1 X598.282 Y142.23 Z-2.542 A0 B0 C180 F2000
G1 X598.071 Y142.123 Z-2.542 A0 B0 C180 F2000
G1 X597.868 Y142 Z-2.542 A0 B0 C180 F2000
G1 X597.676 Y141.862 Z-2.542 A0 B0 C180 F2000
G1 X597.495 Y141.709 Z-2.542 A0 B0 C180 F2000
G1 X597.326 Y141.543 Z-2.542 A0 B0 C180 F2000
G1 X597.171 Y141.365 Z-2.542 A0 B0 C180 F2000
G1 X597.029 Y141.175 Z-2.542 A0 B0 C180 F2000
G1 X596.903 Y140.975 Z-2.542 A0 B0 C180 F2000
G1 X596.792 Y140.766 Z-2.542 A0 B0 C180 F2000
G1 X596.697 Y140.549 Z-2.542 A0 B0 C180 F2000
G1 X596.62 Y140.325 Z-2.542 A0 B0 C180 F2000
G1 X596.56 Y140.096 Z-2.542 A0 B0 C180 F2000
G1 X596.539 Y139.98 Z-2.542 A0 B0 C180 F2000
G1 X596.516 Y133.521 Z-2.542 A0 B0 C180 F2000
G1 X596.489 Y120.604 Z-2.542 A0 B0 C180 F2000
G1 X596.48 Y107.688 Z-2.542 A0 B0 C180 F2000
G1 X596.487 Y94.771 Z-2.542 A0 B0 C180 F2000
G1 X596.5 Y88.313 Z-2.542 A0 B0 C180 F2000
G1 X596.531 Y55.072 Z-2.542 A0 B0 C180 F2000
G1 X596.55 Y54.955 Z-2.542 A0 B0 C180 F2000
G1 X596.606 Y54.725 Z-2.542 A0 B0 C180 F2000
G1 X596.68 Y54.5 Z-2.542 A0 B0 C180 F2000
G1 X596.77 Y54.282 Z-2.542 A0 B0 C180 F2000
G1 X596.877 Y54.071 Z-2.542 A0 B0 C180 F2000
G1 X597 Y53.868 Z-2.542 A0 B0 C180 F2000
G1 X597.138 Y53.676 Z-2.542 A0 B0 C180 F2000
G1 X597.291 Y53.495 Z-2.542 A0 B0 C180 F2000
G1 X597.457 Y53.326 Z-2.542 A0 B0 C180 F2000
G1 X597.635 Y53.171 Z-2.542 A0 B0 C180 F2000
G1 X597.825 Y53.029 Z-2.542 A0 B0 C180 F2000
G1 X598.025 Y52.903 Z-2.542 A0 B0 C180 F2000
G1 X598.234 Y52.792 Z-2.542 A0 B0 C180 F2000
G1 X598.451 Y52.697 Z-2.542 A0 B0 C180 F2000
G1 X598.675 Y52.62 Z-2.542 A0 B0 C180 F2000
G1 X598.904 Y52.56 Z-2.542 A0 B0 C180 F2000
G1 X599.02 Y52.539 Z-2.542 A0 B0 C180 F2000
G1 X599.322 Y52.512 Z-2.542 A0 B0 C180 F2000
G1 X599.926 Y52.48 Z-2.542 A0 B0 C180 F2000
G1 X600.531 Y52.47 Z-2.542 A0 B0 C180 F2000
G1 X601.136 Y52.483 Z-2.542 A0 B0 C180 F2000
G1 X601.437 Y52.5 Z-2.542 A0 B0 C180 F2000
G1 X634.853 Y52.5 Z-2.542 A0 B0 C180 F2000
G1 X634.942 Y52.5 Z-2.556 A0 B0 C180 F1080
G1 X635.116 Y52.5 Z-2.601 A0 B0 C180 F1080
G1 X635.283 Y52.501 Z-2.665 A0 B0 C180 F1080
G1 X635.444 Y52.501 Z-2.746 A0 B0 C180 F1080
G1 X635.519 Y52.501 Z-2.794 A0 B0 C180 F1080
G1 X635.75 Y52.5 Z-2.841 A0 B0 C180 F1080
G1 X661.5 Y52.5 Z-2.841 A0 B0 C180 F2000
G1 X723.963 Y52.536 Z-2.841 A0 B0 C180 F2000
G1 X724.09 Y52.558 Z-2.841 A0 B0 C180 F2000
G1 X724.338 Y52.624 Z-2.841 A0 B0 C180 F2000
G1 X724.58 Y52.71 Z-2.841 A0 B0 C180 F2000
G1 X724.814 Y52.816 Z-2.841 A0 B0 C180 F2000
G1 X725.038 Y52.941 Z-2.841 A0 B0 C180 F2000
G1 X725.251 Y53.084 Z-2.841 A0 B0 C180 F2000
G1 X725.451 Y53.244 Z-2.841 A0 B0 C180 F2000
G1 X725.637 Y53.421 Z-2.841 A0 B0 C180 F2000
G1 X725.808 Y53.612 Z-2.841 A0 B0 C180 F2000
G1 X725.963 Y53.818 Z-2.841 A0 B0 C180 F2000
G1 X726.099 Y54.035 Z-2.841 A0 B0 C180 F2000
G1 X726.217 Y54.263 Z-2.841 A0 B0 C180 F2000
G1 X726.316 Y54.5 Z-2.841 A0 B0 C180 F2000
G1 X726.395 Y54.744 Z-2.841 A0 B0 C180 F2000
G1 X726.453 Y54.994 Z-2.841 A0 B0 C180 F2000
G1 X726.49 Y55.248 Z-2.841 A0 B0 C180 F2000
G1 X726.497 Y55.376 Z-2.841 A0 B0 C180 F2000
G1 X726.503 Y62.001 Z-2.841 A0 B0 C180 F2000
G1 X726.5 Y68.625 Z-2.841 A0 B0 C180 F2000
G1 X726.464 Y139.963 Z-2.841 A0 B0 C180 F2000
G1 X726.442 Y140.09 Z-2.841 A0 B0 C180 F2000
G1 X726.376 Y140.338 Z-2.841 A0 B0 C180 F2000
G1 X726.29 Y140.58 Z-2.841 A0 B0 C180 F2000
G1 X726.184 Y140.814 Z-2.841 A0 B0 C180 F2000
G1 X726.059 Y141.038 Z-2.841 A0 B0 C180 F2000
G1 X725.916 Y141.251 Z-2.841 A0 B0 C180 F2000
G1 X725.756 Y141.451 Z-2.841 A0 B0 C180 F2000
G1 X725.579 Y141.637 Z-2.841 A0 B0 C180 F2000
G1 X725.388 Y141.808 Z-2.841 A0 B0 C180 F2000
G1 X725.182 Y141.963 Z-2.841 A0 B0 C180 F2000
G1 X724.965 Y142.099 Z-2.841 A0 B0 C180 F2000
G1 X724.737 Y142.217 Z-2.841 A0 B0 C180 F2000
G1 X724.5 Y142.316 Z-2.841 A0 B0 C180 F2000
G1 X724.256 Y142.395 Z-2.841 A0 B0 C180 F2000
G1 X724.006 Y142.453 Z-2.841 A0 B0 C180 F2000
G1 X723.752 Y142.49 Z-2.841 A0 B0 C180 F2000
G1 X723.624 Y142.497 Z-2.841 A0 B0 C180 F2000
G1 X716.781 Y142.504 Z-2.841 A0 B0 C180 F2000
G1 X709.937 Y142.5 Z-2.841 A0 B0 C180 F2000
G1 X599.037 Y142.464 Z-2.841 A0 B0 C180 F2000
G1 X598.91 Y142.442 Z-2.841 A0 B0 C180 F2000
G1 X598.662 Y142.376 Z-2.841 A0 B0 C180 F2000
G1 X598.42 Y142.29 Z-2.841 A0 B0 C180 F2000
G1 X598.186 Y142.184 Z-2.841 A0 B0 C180 F2000
G1 X597.962 Y142.059 Z-2.841 A0 B0 C180 F2000
G1 X597.749 Y141.916 Z-2.841 A0 B0 C180 F2000
G1 X597.549 Y141.756 Z-2.841 A0 B0 C180 F2000
G1 X597.363 Y141.579 Z-2.841 A0 B0 C180 F2000
G1 X597.192 Y141.388 Z-2.841 A0 B0 C180 F2000
G1 X597.037 Y141.182 Z-2.841 A0 B0 C180 F2000
G1 X596.901 Y140.965 Z-2.841 A0 B0 C180 F2000
G1 X596.783 Y140.737 Z-2.841 A0 B0 C180 F2000
G1 X596.684 Y140.5 Z-2.841 A0 B0 C180 F2000
G1 X596.605 Y140.256 Z-2.841 A0 B0 C180 F2000
G1 X596.547 Y140.006 Z-2.841 A0 B0 C180 F2000
G1 X596.51 Y139.752 Z-2.841 A0 B0 C180 F2000
G1 X596.503 Y139.624 Z-2.841 A0 B0 C180 F2000
G1 X596.497 Y132.999 Z-2.841 A0 B0 C180 F2000
G1 X596.5 Y126.375 Z-2.841 A0 B0 C180 F2000
G1 X596.536 Y55.037 Z-2.841 A0 B0 C180 F2000
G1 X596.558 Y54.91 Z-2.841 A0 B0 C180 F2000
G1 X596.624 Y54.662 Z-2.841 A0 B0 C180 F2000
G1 X596.71 Y54.42 Z-2.841 A0 B0 C180 F2000
G1 X596.816 Y54.186 Z-2.841 A0 B0 C180 F2000
G1 X596.941 Y53.962 Z-2.841 A0 B0 C180 F2000
G1 X597.084 Y53.749 Z-2.841 A0 B0 C180 F2000
G1 X597.244 Y53.549 Z-2.841 A0 B0 C180 F2000
G1 X597.421 Y53.363 Z-2.841 A0 B0 C180 F2000
G1 X597.612 Y53.192 Z-2.841 A0 B0 C180 F2000
G1 X597.817 Y53.037 Z-2.841 A0 B0 C180 F2000
G1 X598.035 Y52.901 Z-2.841 A0 B0 C180 F2000
G1 X598.263 Y52.783 Z-2.841 A0 B0 C180 F2000
G1 X598.5 Y52.684 Z-2.841 A0 B0 C180 F2000
G1 X598.744 Y52.605 Z-2.841 A0 B0 C180 F2000
G1 X598.994 Y52.547 Z-2.841 A0 B0 C180 F2000
G1 X599.248 Y52.51 Z-2.841 A0 B0 C180 F2000
G1 X599.376 Y52.503 Z-2.841 A0 B0 C180 F2000
G1 X606.219 Y52.496 Z-2.841 A0 B0 C180 F2000
G1 X613.062 Y52.5 Z-2.841 A0 B0 C180 F2000
G1 X635.75 Y52.5 Z-2.841 A0 B0 C180 F2000
G1 X635.839 Y52.5 Z-2.855 A0 B0 C180 F1080
G1 X636.013 Y52.5 Z-2.9 A0 B0 C180 F1080
G1 X636.181 Y52.501 Z-2.964 A0 B0 C180 F1080
G1 X636.341 Y52.501 Z-3.045 A0 B0 C180 F1080
G1 X636.416 Y52.501 Z-3.093 A0 B0 C180 F1080
G1 X636.648 Y52.5 Z-3.14 A0 B0 C180 F1080
G1 X661.5 Y52.5 Z-3.14 A0 B0 C180 F2000
G1 X723.92 Y52.53 Z-3.14 A0 B0 C180 F2000
G1 X724.041 Y52.549 Z-3.14 A0 B0 C180 F2000
G1 X724.281 Y52.608 Z-3.14 A0 B0 C180 F2000
G1 X724.514 Y52.685 Z-3.14 A0 B0 C180 F2000
G1 X724.741 Y52.781 Z-3.14 A0 B0 C180 F2000
G1 X724.96 Y52.894 Z-3.14 A0 B0 C180 F2000
G1 X725.169 Y53.025 Z-3.14 A0 B0 C180 F2000
G1 X725.366 Y53.172 Z-3.14 A0 B0 C180 F2000
G1 X725.551 Y53.335 Z-3.14 A0 B0 C180 F2000
G1 X725.723 Y53.511 Z-3.14 A0 B0 C180 F2000
G1 X725.88 Y53.701 Z-3.14 A0 B0 C180 F2000
G1 X726.021 Y53.903 Z-3.14 A0 B0 C180 F2000
G1 X726.146 Y54.115 Z-3.14 A0 B0 C180 F2000
G1 X726.253 Y54.337 Z-3.14 A0 B0 C180 F2000
G1 X726.343 Y54.566 Z-3.14 A0 B0 C180 F2000
G1 X726.413 Y54.802 Z-3.14 A0 B0 C180 F2000
G1 X726.465 Y55.043 Z-3.14 A0 B0 C180 F2000
G1 X726.481 Y55.165 Z-3.14 A0 B0 C180 F2000
G1 X726.492 Y59.472 Z-3.14 A0 B0 C180 F2000
G1 X726.504 Y68.087 Z-3.14 A0 B0 C180 F2000
G1 X726.509 Y76.702 Z-3.14 A0 B0 C180 F2000
G1 X726.506 Y85.317 Z-3.14 A0 B0 C180 F2000
G1 X726.5 Y89.625 Z-3.14 A0 B0 C180 F2000
G1 X726.471 Y139.92 Z-3.14 A0 B0 C180 F2000
G1 X726.452 Y140.053 Z-3.14 A0 B0 C180 F2000
G1 X726.391 Y140.314 Z-3.14 A0 B0 C180 F2000
G1 X726.306 Y140.569 Z-3.14 A0 B0 C180 F2000
G1 X726.2 Y140.815 Z-3.14 A0 B0 C180 F2000
G1 X726.072 Y141.051 Z-3.14 A0 B0 C180 F2000
G1 X725.923 Y141.274 Z-3.14 A0 B0 C180 F2000
G1 X725.755 Y141.483 Z-3.14 A0 B0 C180 F2000
G1 X725.569 Y141.677 Z-3.14 A0 B0 C180 F2000
G1 X725.366 Y141.853 Z-3.14 A0 B0 C180 F2000
G1 X725.148 Y142.01 Z-3.14 A0 B0 C180 F2000
G1 X724.918 Y142.147 Z-3.14 A0 B0 C180 F2000
G1 X724.676 Y142.263 Z-3.14 A0 B0 C180 F2000
G1 X724.424 Y142.357 Z-3.14 A0 B0 C180 F2000
G1 X724.166 Y142.428 Z-3.14 A0 B0 C180 F2000
G1 X723.901 Y142.476 Z-3.14 A0 B0 C180 F2000
G1 X723.634 Y142.5 Z-3.14 A0 B0 C180 F2000
G1 X723.5 Y142.5 Z-3.14 A0 B0 C180 F2000
G1 X599.08 Y142.47 Z-3.14 A0 B0 C180 F2000
G1 X598.959 Y142.451 Z-3.14 A0 B0 C180 F2000
G1 X598.719 Y142.392 Z-3.14 A0 B0 C180 F2000
G1 X598.486 Y142.315 Z-3.14 A0 B0 C180 F2000
G1 X598.259 Y142.219 Z-3.14 A0 B0 C180 F2000
G1 X598.04 Y142.106 Z-3.14 A0 B0 C180 F2000
G1 X597.831 Y141.975 Z-3.14 A0 B0 C180 F2000
G1 X597.634 Y141.828 Z-3.14 A0 B0 C180 F2000
G1 X597.449 Y141.665 Z-3.14 A0 B0 C180 F2000
G1 X597.277 Y141.489 Z-3.14 A0 B0 C180 F2000
G1 X597.12 Y141.299 Z-3.14 A0 B0 C180 F2000
G1 X596.979 Y141.097 Z-3.14 A0 B0 C180 F2000
G1 X596.854 Y140.885 Z-3.14 A0 B0 C180 F2000
G1 X596.747 Y140.663 Z-3.14 A0 B0 C180 F2000
G1 X596.657 Y140.434 Z-3.14 A0 B0 C180 F2000
G1 X596.586 Y140.198 Z-3.14 A0 B0 C180 F2000
G1 X596.535 Y139.957 Z-3.14 A0 B0 C180 F2000
G1 X596.519 Y139.835 Z-3.14 A0 B0 C180 F2000
G1 X596.508 Y135.528 Z-3.14 A0 B0 C180 F2000
G1 X596.496 Y126.913 Z-3.14 A0 B0 C180 F2000
G1 X596.491 Y118.298 Z-3.14 A0 B0 C180 F2000
G1 X596.494 Y109.683 Z-3.14 A0 B0 C180 F2000
G1 X596.5 Y105.375 Z-3.14 A0 B0 C180 F2000
G1 X596.529 Y55.08 Z-3.14 A0 B0 C180 F2000
G1 X596.548 Y54.947 Z-3.14 A0 B0 C180 F2000
G1 X596.609 Y54.686 Z-3.14 A0 B0 C180 F2000
G1 X596.694 Y54.431 Z-3.14 A0 B0 C180 F2000
G1 X596.8 Y54.185 Z-3.14 A0 B0 C180 F2000
G1 X596.928 Y53.949 Z-3.14 A0 B0 C180 F2000
G1 X597.077 Y53.726 Z-3.14 A0 B0 C180 F2000
G1 X597.245 Y53.517 Z-3.14 A0 B0 C180 F2000
G1 X597.431 Y53.323 Z-3.14 A0 B0 C180 F2000
G1 X597.634 Y53.147 Z-3.14 A0 B0 C180 F2000
G1 X597.851 Y52.99 Z-3.14 A0 B0 C180 F2000
G1 X598.082 Y52.853 Z-3.14 A0 B0 C180 F2000
G1 X598.324 Y52.737 Z-3.14 A0 B0 C180 F2000
G1 X598.576 Y52.643 Z-3.14 A0 B0 C180 F2000
G1 X598.834 Y52.572 Z-3.14 A0 B0 C180 F2000
G1 X599.098 Y52.524 Z-3.14 A0 B0 C180 F2000
G1 X599.366 Y52.5 Z-3.14 A0 B0 C180 F2000
G1 X599.5 Y52.5 Z-3.14 A0 B0 C180 F2000
G1 X636.648 Y52.5 Z-3.14 A0 B0 C180 F2000
G1 X636.736 Y52.5 Z-3.154 A0 B0 C180 F1080
G1 X636.91 Y52.5 Z-3.199 A0 B0 C180 F1080
G1 X637.078 Y52.501 Z-3.263 A0 B0 C180 F1080
G1 X637.238 Y52.501 Z-3.344 A0 B0 C180 F1080
G1 X637.314 Y52.501 Z-3.393 A0 B0 C180 F1080
G1 X637.545 Y52.5 Z-3.439 A0 B0 C180 F1080
G1 X661.5 Y52.5 Z-3.439 A0 B0 C180 F2000
G1 X723.981 Y52.539 Z-3.439 A0 B0 C180 F2000
G1 X724.095 Y52.56 Z-3.439 A0 B0 C180 F2000
G1 X724.319 Y52.618 Z-3.439 A0 B0 C180 F2000
G1 X724.539 Y52.694 Z-3.439 A0 B0 C180 F2000
G1 X724.752 Y52.785 Z-3.439 A0 B0 C180 F2000
G1 X724.957 Y52.892 Z-3.439 A0 B0 C180 F2000
G1 X725.154 Y53.015 Z-3.439 A0 B0 C180 F2000
G1 X725.341 Y53.151 Z-3.439 A0 B0 C180 F2000
G1 X725.518 Y53.302 Z-3.439 A0 B0 C180 F2000
G1 X725.682 Y53.465 Z-3.439 A0 B0 C180 F2000
G1 X725.834 Y53.64 Z-3.439 A0 B0 C180 F2000
G1 X725.972 Y53.827 Z-3.439 A0 B0 C180 F2000
G1 X726.096 Y54.023 Z-3.439 A0 B0 C180 F2000
G1 X726.205 Y54.227 Z-3.439 A0 B0 C180 F2000
G1 X726.298 Y54.44 Z-3.439 A0 B0 C180 F2000
G1 X726.375 Y54.658 Z-3.439 A0 B0 C180 F2000
G1 X726.436 Y54.882 Z-3.439 A0 B0 C180 F2000
G1 X726.457 Y54.996 Z-3.439 A0 B0 C180 F2000
G1 X726.483 Y59.653 Z-3.439 A0 B0 C180 F2000
G1 X726.513 Y68.966 Z-3.439 A0 B0 C180 F2000
G1 X726.524 Y78.28 Z-3.439 A0 B0 C180 F2000
G1 X726.515 Y87.593 Z-3.439 A0 B0 C180 F2000
G1 X726.5 Y92.25 Z-3.439 A0 B0 C180 F2000
G1 X726.461 Y139.981 Z-3.439 A0 B0 C180 F2000
G1 X726.44 Y140.095 Z-3.439 A0 B0 C180 F2000
G1 X726.382 Y140.319 Z-3.439 A0 B0 C180 F2000
G1 X726.307 Y140.539 Z-3.439 A0 B0 C180 F2000
G1 X726.215 Y140.752 Z-3.439 A0 B0 C180 F2000
G1 X726.108 Y140.957 Z-3.439 A0 B0 C180 F2000
G1 X725.985 Y141.154 Z-3.439 A0 B0 C180 F2000
G1 X725.849 Y141.341 Z-3.439 A0 B0 C180 F2000
G1 X725.698 Y141.518 Z-3.439 A0 B0 C180 F2000
G1 X725.535 Y141.682 Z-3.439 A0 B0 C180 F2000
G1 X725.36 Y141.834 Z-3.439 A0 B0 C180 F2000
G1 X725.173 Y141.972 Z-3.439 A0 B0 C180 F2000
G1 X724.978 Y142.096 Z-3.439 A0 B0 C180 F2000
G1 X724.773 Y142.205 Z-3.439 A0 B0 C180 F2000
G1 X724.561 Y142.298 Z-3.439 A0 B0 C180 F2000
G1 X724.342 Y142.375 Z-3.439 A0 B0 C180 F2000
G1 X724.118 Y142.436 Z-3.439 A0 B0 C180 F2000
G1 X724.004 Y142.457 Z-3.439 A0 B0 C180 F2000
G1 X723.61 Y142.475 Z-3.439 A0 B0 C180 F2000
G1 X722.82 Y142.503 Z-3.439 A0 B0 C180 F2000
G1 X722.031 Y142.523 Z-3.439 A0 B0 C180 F2000
G1 X721.241 Y142.536 Z-3.439 A0 B0 C180 F2000
G1 X720.451 Y142.541 Z-3.439 A0 B0 C180 F2000
G1 X719.662 Y142.539 Z-3.439 A0 B0 C180 F2000
G1 X718.872 Y142.529 Z-3.439 A0 B0 C180 F2000
G1 X718.082 Y142.512 Z-3.439 A0 B0 C180 F2000
G1 X717.687 Y142.5 Z-3.439 A0 B0 C180 F2000
G1 X599.019 Y142.461 Z-3.439 A0 B0 C180 F2000
G1 X598.905 Y142.44 Z-3.439 A0 B0 C180 F2000
G1 X598.681 Y142.382 Z-3.439 A0 B0 C180 F2000
G1 X598.461 Y142.307 Z-3.439 A0 B0 C180 F2000
G1 X598.248 Y142.215 Z-3.439 A0 B0 C180 F2000
G1 X598.043 Y142.108 Z-3.439 A0 B0 C180 F2000
G1 X597.846 Y141.985 Z-3.439 A0 B0 C180 F2000
G1 X597.659 Y141.849 Z-3.439 A0 B0 C180 F2000
G1 X597.482 Y141.698 Z-3.439 A0 B0 C180 F2000
G1 X597.318 Y141.535 Z-3.439 A0 B0 C180 F2000
G1 X597.166 Y141.36 Z-3.439 A0 B0 C180 F2000
G1 X597.028 Y141.173 Z-3.439 A0 B0 C180 F2000
G1 X596.904 Y140.977 Z-3.439 A0 B0 C180 F2000
G1 X596.795 Y140.773 Z-3.439 A0 B0 C180 F2000
G1 X596.702 Y140.56 Z-3.439 A0 B0 C180 F2000
G1 X596.625 Y140.342 Z-3.439 A0 B0 C180 F2000
G1 X596.564 Y140.118 Z-3.439 A0 B0 C180 F2000
G1 X596.543 Y140.004 Z-3.439 A0 B0 C180 F2000
G1 X596.517 Y135.347 Z-3.439 A0 B0 C180 F2000
G1 X596.487 Y126.034 Z-3.439 A0 B0 C180 F2000
G1 X596.476 Y116.72 Z-3.439 A0 B0 C180 F2000
G1 X596.485 Y107.407 Z-3.439 A0 B0 C180 F2000
G1 X596.5 Y102.75 Z-3.439 A0 B0 C180 F2000
G1 X596.539 Y55.019 Z-3.439 A0 B0 C180 F2000
G1 X596.56 Y54.905 Z-3.439 A0 B0 C180 F2000
G1 X596.618 Y54.681 Z-3.439 A0 B0 C180 F2000
G1 X596.693 Y54.461 Z-3.439 A0 B0 C180 F2000
G1 X596.785 Y54.248 Z-3.439 A0 B0 C180 F2000
G1 X596.892 Y54.043 Z-3.439 A0 B0 C180 F2000
G1 X597.015 Y53.846 Z-3.439 A0 B0 C180 F2000
G1 X597.151 Y53.659 Z-3.439 A0 B0 C180 F2000
G1 X597.302 Y53.482 Z-3.439 A0 B0 C180 F2000
G1 X597.465 Y53.318 Z-3.439 A0 B0 C180 F2000
G1 X597.64 Y53.166 Z-3.439 A0 B0 C180 F2000
G1 X597.827 Y53.028 Z-3.439 A0 B0 C180 F2000
G1 X598.022 Y52.904 Z-3.439 A0 B0 C180 F2000
G1 X598.227 Y52.795 Z-3.439 A0 B0 C180 F2000
G1 X598.439 Y52.702 Z-3.439 A0 B0 C180 F2000
G1 X598.658 Y52.625 Z-3.439 A0 B0 C180 F2000
G1 X598.882 Y52.564 Z-3.439 A0 B0 C180 F2000
G1 X598.996 Y52.543 Z-3.439 A0 B0 C180 F2000
G1 X599.39 Y52.525 Z-3.439 A0 B0 C180 F2000
G1 X600.18 Y52.497 Z-3.439 A0 B0 C180 F2000
G1 X600.969 Y52.477 Z-3.439 A0 B0 C180 F2000
G1 X601.759 Y52.464 Z-3.439 A0 B0 C180 F2000
G1 X602.549 Y52.459 Z-3.439 A0 B0 C180 F2000
G1 X603.338 Y52.461 Z-3.439 A0 B0 C180 F2000
G1 X604.128 Y52.471 Z-3.439 A0 B0 C180 F2000
G1 X604.918 Y52.488 Z-3.439 A0 B0 C180 F2000
G1 X605.312 Y52.5 Z-3.439 A0 B0 C180 F2000
G1 X637.545 Y52.5 Z-3.439 A0 B0 C180 F2000
G1 X637.634 Y52.5 Z-3.453 A0 B0 C180 F1080
G1 X637.807 Y52.5 Z-3.498 A0 B0 C180 F1080
G1 X637.975 Y52.501 Z-3.562 A0 B0 C180 F1080
G1 X638.135 Y52.501 Z-3.643 A0 B0 C180 F1080
G1 X638.211 Y52.501 Z-3.692 A0 B0 C180 F1080
G1 X638.442 Y52.5 Z-3.738 A0 B0 C180 F1080
G1 X661.5 Y52.5 Z-3.738 A0 B0 C180 F2000
G1 X723.959 Y52.535 Z-3.738 A0 B0 C180 F2000
G1 X724.073 Y52.555 Z-3.738 A0 B0 C180 F2000
G1 X724.296 Y52.612 Z-3.738 A0 B0 C180 F2000
G1 X724.515 Y52.685 Z-3.738 A0 B0 C180 F2000
G1 X724.728 Y52.774 Z-3.738 A0 B0 C180 F2000
G1 X724.933 Y52.878 Z-3.738 A0 B0 C180 F2000
G1 X725.13 Y52.998 Z-3.738 A0 B0 C180 F2000
G1 X725.317 Y53.132 Z-3.738 A0 B0 C180 F2000
G1 X725.494 Y53.28 Z-3.738 A0 B0 C180 F2000
G1 X725.66 Y53.441 Z-3.738 A0 B0 C180 F2000
G1 X725.813 Y53.613 Z-3.738 A0 B0 C180 F2000
G1 X725.952 Y53.796 Z-3.738 A0 B0 C180 F2000
G1 X726.078 Y53.99 Z-3.738 A0 B0 C180 F2000
G1 X726.189 Y54.192 Z-3.738 A0 B0 C180 F2000
G1 X726.284 Y54.402 Z-3.738 A0 B0 C180 F2000
G1 X726.363 Y54.618 Z-3.738 A0 B0 C180 F2000
G1 X726.426 Y54.84 Z-3.738 A0 B0 C180 F2000
G1 X726.45 Y54.953 Z-3.738 A0 B0 C180 F2000
G1 X726.484 Y56.661 Z-3.738 A0 B0 C180 F2000
G1 X726.524 Y60.079 Z-3.738 A0 B0 C180 F2000
G1 X726.537 Y63.498 Z-3.738 A0 B0 C180 F2000
G1 X726.522 Y66.916 Z-3.738 A0 B0 C180 F2000
G1 X726.5 Y68.625 Z-3.738 A0 B0 C180 F2000
G1 X726.465 Y139.959 Z-3.738 A0 B0 C180 F2000
G1 X726.445 Y140.073 Z-3.738 A0 B0 C180 F2000
G1 X726.388 Y140.296 Z-3.738 A0 B0 C180 F2000
G1 X726.315 Y140.515 Z-3.738 A0 B0 C180 F2000
G1 X726.226 Y140.727 Z-3.738 A0 B0 C180 F2000
G1 X726.122 Y140.933 Z-3.738 A0 B0 C180 F2000
G1 X726.002 Y141.13 Z-3.738 A0 B0 C180 F2000
G1 X725.868 Y141.317 Z-3.738 A0 B0 C180 F2000
G1 X725.72 Y141.494 Z-3.738 A0 B0 C180 F2000
G1 X725.559 Y141.66 Z-3.738 A0 B0 C180 F2000
G1 X725.387 Y141.813 Z-3.738 A0 B0 C180 F2000
G1 X725.204 Y141.952 Z-3.738 A0 B0 C180 F2000
G1 X725.01 Y142.078 Z-3.738 A0 B0 C180 F2000
G1 X724.808 Y142.189 Z-3.738 A0 B0 C180 F2000
G1 X724.598 Y142.284 Z-3.738 A0 B0 C180 F2000
G1 X724.382 Y142.363 Z-3.738 A0 B0 C180 F2000
G1 X724.16 Y142.426 Z-3.738 A0 B0 C180 F2000
G1 X724.047 Y142.45 Z-3.738 A0 B0 C180 F2000
G1 X723.772 Y142.468 Z-3.738 A0 B0 C180 F2000
G1 X723.219 Y142.497 Z-3.738 A0 B0 C180 F2000
G1 X722.666 Y142.518 Z-3.738 A0 B0 C180 F2000
G1 X722.113 Y142.532 Z-3.738 A0 B0 C180 F2000
G1 X721.56 Y142.539 Z-3.738 A0 B0 C180 F2000
G1 X721.007 Y142.537 Z-3.738 A0 B0 C180 F2000
G1 X720.454 Y142.528 Z-3.738 A0 B0 C180 F2000
G1 X719.901 Y142.512 Z-3.738 A0 B0 C180 F2000
G1 X719.625 Y142.5 Z-3.738 A0 B0 C180 F2000
G1 X599.041 Y142.465 Z-3.738 A0 B0 C180 F2000
G1 X598.927 Y142.445 Z-3.738 A0 B0 C180 F2000
G1 X598.704 Y142.388 Z-3.738 A0 B0 C180 F2000
G1 X598.485 Y142.315 Z-3.738 A0 B0 C180 F2000
G1 X598.272 Y142.226 Z-3.738 A0 B0 C180 F2000
G1 X598.067 Y142.122 Z-3.738 A0 B0 C180 F2000
G1 X597.87 Y142.002 Z-3.738 A0 B0 C180 F2000
G1 X597.683 Y141.868 Z-3.738 A0 B0 C180 F2000
G1 X597.506 Y141.72 Z-3.738 A0 B0 C180 F2000
G1 X597.34 Y141.559 Z-3.738 A0 B0 C180 F2000
G1 X597.187 Y141.387 Z-3.738 A0 B0 C180 F2000
G1 X597.048 Y141.204 Z-3.738 A0 B0 C180 F2000
G1 X596.922 Y141.01 Z-3.738 A0 B0 C180 F2000
G1 X596.811 Y140.808 Z-3.738 A0 B0 C180 F2000
G1 X596.716 Y140.598 Z-3.738 A0 B0 C180 F2000
G1 X596.637 Y140.382 Z-3.738 A0 B0 C180 F2000
G1 X596.574 Y140.16 Z-3.738 A0 B0 C180 F2000
G1 X596.55 Y140.047 Z-3.738 A0 B0 C180 F2000
G1 X596.516 Y138.339 Z-3.738 A0 B0 C180 F2000
G1 X596.476 Y134.921 Z-3.738 A0 B0 C180 F2000
G1 X596.463 Y131.502 Z-3.738 A0 B0 C180 F2000
G1 X596.478 Y128.084 Z-3.738 A0 B0 C180 F2000
G1 X596.5 Y126.375 Z-3.738 A0 B0 C180 F2000
G1 X596.535 Y55.041 Z-3.738 A0 B0 C180 F2000
G1 X596.555 Y54.927 Z-3.738 A0 B0 C180 F2000
G1 X596.612 Y54.704 Z-3.738 A0 B0 C180 F2000
G1 X596.685 Y54.485 Z-3.738 A0 B0 C180 F2000
G1 X596.774 Y54.273 Z-3.738 A0 B0 C180 F2000
G1 X596.878 Y54.067 Z-3.738 A0 B0 C180 F2000
G1 X596.998 Y53.87 Z-3.738 A0 B0 C180 F2000
G1 X597.132 Y53.683 Z-3.738 A0 B0 C180 F2000
G1 X597.28 Y53.506 Z-3.738 A0 B0 C180 F2000
G1 X597.44 Y53.34 Z-3.738 A0 B0 C180 F2000
G1 X597.613 Y53.187 Z-3.738 A0 B0 C180 F2000
G1 X597.796 Y53.048 Z-3.738 A0 B0 C180 F2000
G1 X597.99 Y52.922 Z-3.738 A0 B0 C180 F2000
G1 X598.192 Y52.811 Z-3.738 A0 B0 C180 F2000
G1 X598.402 Y52.716 Z-3.738 A0 B0 C180 F2000
G1 X598.618 Y52.637 Z-3.738 A0 B0 C180 F2000
G1 X598.84 Y52.574 Z-3.738 A0 B0 C180 F2000
G1 X598.952 Y52.55 Z-3.738 A0 B0 C180 F2000
G1 X599.228 Y52.532 Z-3.738 A0 B0 C180 F2000
G1 X599.781 Y52.503 Z-3.738 A0 B0 C180 F2000
G1 X600.334 Y52.482 Z-3.738 A0 B0 C180 F2000
G1 X600.887 Y52.468 Z-3.738 A0 B0 C180 F2000
G1 X601.44 Y52.461 Z-3.738 A0 B0 C180 F2000
G1 X601.993 Y52.463 Z-3.738 A0 B0 C180 F2000
G1 X602.546 Y52.472 Z-3.738 A0 B0 C180 F2000
G1 X603.099 Y52.488 Z-3.738 A0 B0 C180 F2000
G1 X603.375 Y52.5 Z-3.738 A0 B0 C180 F2000
G1 X638.442 Y52.5 Z-3.738 A0 B0 C180 F2000
G1 X638.531 Y52.5 Z-3.752 A0 B0 C180 F1080
G1 X638.704 Y52.5 Z-3.798 A0 B0 C180 F1080
G1 X638.872 Y52.501 Z-3.861 A0 B0 C180 F1080
G1 X639.033 Y52.501 Z-3.942 A0 B0 C180 F1080
G1 X639.108 Y52.501 Z-3.991 A0 B0 C180 F1080
G1 X639.339 Y52.5 Z-4.037 A0 B0 C180 F1080
G1 X661.5 Y52.5 Z-4.037 A0 B0 C180 F2000
G1 X723.932 Y52.531 Z-4.037 A0 B0 C180 F2000
G1 X724.063 Y52.553 Z-4.037 A0 B0 C180 F2000
G1 X724.321 Y52.618 Z-4.037 A0 B0 C180 F2000
G1 X724.572 Y52.706 Z-4.037 A0 B0 C180 F2000
G1 X724.815 Y52.815 Z-4.037 A0 B0 C180 F2000
G1 X725.047 Y52.945 Z-4.037 A0 B0 C180 F2000
G1 X725.268 Y53.094 Z-4.037 A0 B0 C180 F2000
G1 X725.474 Y53.262 Z-4.037 A0 B0 C180 F2000
G1 X725.665 Y53.448 Z-4.037 A0 B0 C180 F2000
G1 X725.839 Y53.649 Z-4.037 A0 B0 C180 F2000
G1 X725.996 Y53.864 Z-4.037 A0 B0 C180 F2000
G1 X726.132 Y54.092 Z-4.037 A0 B0 C180 F2000
G1 X726.249 Y54.332 Z-4.037 A0 B0 C180 F2000
G1 X726.345 Y54.58 Z-4.037 A0 B0 C180 F2000
G1 X726.418 Y54.836 Z-4.037 A0 B0 C180 F2000
G1 X726.469 Y55.097 Z-4.037 A0 B0 C180 F2000
G1 X726.497 Y55.361 Z-4.037 A0 B0 C180 F2000
G1 X726.5 Y55.494 Z-4.037 A0 B0 C180 F2000
G1 X726.469 Y139.932 Z-4.037 A0 B0 C180 F2000
G1 X726.447 Y140.063 Z-4.037 A0 B0 C180 F2000
G1 X726.382 Y140.321 Z-4.037 A0 B0 C180 F2000
G1 X726.294 Y140.572 Z-4.037 A0 B0 C180 F2000
G1 X726.185 Y140.815 Z-4.037 A0 B0 C180 F2000
G1 X726.055 Y141.047 Z-4.037 A0 B0 C180 F2000
G1 X725.906 Y141.268 Z-4.037 A0 B0 C180 F2000
G1 X725.738 Y141.474 Z-4.037 A0 B0 C180 F2000
G1 X725.552 Y141.665 Z-4.037 A0 B0 C180 F2000
G1 X725.351 Y141.839 Z-4.037 A0 B0 C180 F2000
G1 X725.136 Y141.996 Z-4.037 A0 B0 C180 F2000
G1 X724.908 Y142.132 Z-4.037 A0 B0 C180 F2000
G1 X724.668 Y142.249 Z-4.037 A0 B0 C180 F2000
G1 X724.42 Y142.345 Z-4.037 A0 B0 C180 F2000
G1 X724.164 Y142.418 Z-4.037 A0 B0 C180 F2000
G1 X723.903 Y142.469 Z-4.037 A0 B0 C180 F2000
G1 X723.639 Y142.497 Z-4.037 A0 B0 C180 F2000
G1 X723.506 Y142.5 Z-4.037 A0 B0 C180 F2000
G1 X599.068 Y142.469 Z-4.037 A0 B0 C180 F2000
G1 X598.937 Y142.447 Z-4.037 A0 B0 C180 F2000
G1 X598.679 Y142.382 Z-4.037 A0 B0 C180 F2000
G1 X598.428 Y142.294 Z-4.037 A0 B0 C180 F2000
G1 X598.185 Y142.185 Z-4.037 A0 B0 C180 F2000
G1 X597.953 Y142.055 Z-4.037 A0 B0 C180 F2000
G1 X597.732 Y141.906 Z-4.037 A0 B0 C180 F2000
G1 X597.526 Y141.738 Z-4.037 A0 B0 C180 F2000
G1 X597.335 Y141.552 Z-4.037 A0 B0 C180 F2000
G1 X597.161 Y141.351 Z-4.037 A0 B0 C180 F2000
G1 X597.004 Y141.136 Z-4.037 A0 B0 C180 F2000
G1 X596.867 Y140.908 Z-4.037 A0 B0 C180 F2000
G1 X596.751 Y140.668 Z-4.037 A0 B0 C180 F2000
G1 X596.655 Y140.42 Z-4.037 A0 B0 C180 F2000
G1 X596.582 Y140.164 Z-4.037 A0 B0 C180 F2000
G1 X596.531 Y139.903 Z-4.037 A0 B0 C180 F2000
G1 X596.503 Y139.639 Z-4.037 A0 B0 C180 F2000
G1 X596.5 Y139.506 Z-4.037 A0 B0 C180 F2000
G1 X596.531 Y55.068 Z-4.037 A0 B0 C180 F2000
G1 X596.553 Y54.937 Z-4.037 A0 B0 C180 F2000
G1 X596.618 Y54.679 Z-4.037 A0 B0 C180 F2000
G1 X596.706 Y54.428 Z-4.037 A0 B0 C180 F2000
G1 X596.815 Y54.185 Z-4.037 A0 B0 C180 F2000
G1 X596.945 Y53.953 Z-4.037 A0 B0 C180 F2000
G1 X597.094 Y53.732 Z-4.037 A0 B0 C180 F2000
G1 X597.262 Y53.526 Z-4.037 A0 B0 C180 F2000
G1 X597.448 Y53.335 Z-4.037 A0 B0 C180 F2000
G1 X597.649 Y53.161 Z-4.037 A0 B0 C180 F2000
G1 X597.864 Y53.004 Z-4.037 A0 B0 C180 F2000
G1 X598.092 Y52.868 Z-4.037 A0 B0 C180 F2000
G1 X598.332 Y52.751 Z-4.037 A0 B0 C180 F2000
G1 X598.58 Y52.655 Z-4.037 A0 B0 C180 F2000
G1 X598.836 Y52.582 Z-4.037 A0 B0 C180 F2000
G1 X599.097 Y52.531 Z-4.037 A0 B0 C180 F2000
G1 X599.361 Y52.503 Z-4.037 A0 B0 C180 F2000
G1 X599.494 Y52.5 Z-4.037 A0 B0 C180 F2000
G1 X639.339 Y52.5 Z-4.037 A0 B0 C180 F2000
G1 X639.428 Y52.5 Z-4.051 A0 B0 C180 F1080
G1 X639.602 Y52.5 Z-4.097 A0 B0 C180 F1080
G1 X639.769 Y52.501 Z-4.16 A0 B0 C180 F1080
G1 X639.93 Y52.501 Z-4.241 A0 B0 C180 F1080
G1 X640.005 Y52.501 Z-4.29 A0 B0 C180 F1080
G1 X640.236 Y52.5 Z-4.336 A0 B0 C180 F1080
G1 X661.5 Y52.5 Z-4.336 A0 B0 C180 F2000
G1 X723.988 Y52.54 Z-4.336 A0 B0 C180 F2000
G1 X724.11 Y52.562 Z-4.336 A0 B0 C180 F2000
G1 X724.351 Y52.627 Z-4.336 A0 B0 C180 F2000
G1 X724.585 Y52.711 Z-4.336 A0 B0 C180 F2000
G1 X724.812 Y52.814 Z-4.336 A0 B0 C180 F2000
G1 X725.03 Y52.935 Z-4.336 A0 B0 C180 F2000
G1 X725.238 Y53.073 Z-4.336 A0 B0 C180 F2000
G1 X725.433 Y53.227 Z-4.336 A0 B0 C180 F2000
G1 X725.616 Y53.397 Z-4.336 A0 B0 C180 F2000
G1 X725.784 Y53.581 Z-4.336 A0 B0 C180 F2000
G1 X725.936 Y53.778 Z-4.336 A0 B0 C180 F2000
G1 X726.073 Y53.986 Z-4.336 A0 B0 C180 F2000
G1 X726.192 Y54.205 Z-4.336 A0 B0 C180 F2000
G1 X726.292 Y54.433 Z-4.336 A0 B0 C180 F2000
G1 X726.374 Y54.668 Z-4.336 A0 B0 C180 F2000
G1 X726.437 Y54.909 Z-4.336 A0 B0 C180 F2000
G1 X726.48 Y55.155 Z-4.336 A0 B0 C180 F2000
G1 X726.492 Y55.279 Z-4.336 A0 B0 C180 F2000
G1 X726.502 Y61.568 Z-4.336 A0 B0 C180 F2000
G1 X726.506 Y74.148 Z-4.336 A0 B0 C180 F2000
G1 X726.5 Y80.438 Z-4.336 A0 B0 C180 F2000
G1 X726.46 Y139.988 Z-4.336 A0 B0 C180 F2000
G1 X726.438 Y140.11 Z-4.336 A0 B0 C180 F2000
G1 X726.373 Y140.351 Z-4.336 A0 B0 C180 F2000
G1 X726.289 Y140.585 Z-4.336 A0 B0 C180 F2000
G1 X726.186 Y140.812 Z-4.336 A0 B0 C180 F2000
G1 X726.065 Y141.03 Z-4.336 A0 B0 C180 F2000
G1 X725.927 Y141.238 Z-4.336 A0 B0 C180 F2000
G1 X725.773 Y141.433 Z-4.336 A0 B0 C180 F2000
G1 X725.603 Y141.616 Z-4.336 A0 B0 C180 F2000
G1 X725.419 Y141.784 Z-4.336 A0 B0 C180 F2000
G1 X725.222 Y141.936 Z-4.336 A0 B0 C180 F2000
G1 X725.014 Y142.073 Z-4.336 A0 B0 C180 F2000
G1 X724.795 Y142.192 Z-4.336 A0 B0 C180 F2000
G1 X724.567 Y142.292 Z-4.336 A0 B0 C180 F2000
G1 X724.332 Y142.374 Z-4.336 A0 B0 C180 F2000
G1 X724.091 Y142.437 Z-4.336 A0 B0 C180 F2000
G1 X723.845 Y142.48 Z-4.336 A0 B0 C180 F2000
G1 X723.721 Y142.492 Z-4.336 A0 B0 C180 F2000
G1 X717.369 Y142.503 Z-4.336 A0 B0 C180 F2000
G1 X704.665 Y142.507 Z-4.336 A0 B0 C180 F2000
G1 X698.312 Y142.5 Z-4.336 A0 B0 C180 F2000
G1 X599.012 Y142.46 Z-4.336 A0 B0 C180 F2000
G1 X598.89 Y142.438 Z-4.336 A0 B0 C180 F2000
G1 X598.649 Y142.373 Z-4.336 A0 B0 C180 F2000
G1 X598.415 Y142.289 Z-4.336 A0 B0 C180 F2000
G1 X598.188 Y142.186 Z-4.336 A0 B0 C180 F2000
G1 X597.97 Y142.065 Z-4.336 A0 B0 C180 F2000
G1 X597.762 Y141.927 Z-4.336 A0 B0 C180 F2000
G1 X597.567 Y141.773 Z-4.336 A0 B0 C180 F2000
G1 X597.384 Y141.603 Z-4.336 A0 B0 C180 F2000
G1 X597.216 Y141.419 Z-4.336 A0 B0 C180 F2000
G1 X597.064 Y141.222 Z-4.336 A0 B0 C180 F2000
G1 X596.927 Y141.014 Z-4.336 A0 B0 C180 F2000
G1 X596.808 Y140.795 Z-4.336 A0 B0 C180 F2000
G1 X596.708 Y140.567 Z-4.336 A0 B0 C180 F2000
G1 X596.626 Y140.332 Z-4.336 A0 B0 C180 F2000
G1 X596.563 Y140.091 Z-4.336 A0 B0 C180 F2000
G1 X596.52 Y139.845 Z-4.336 A0 B0 C180 F2000
G1 X596.508 Y139.721 Z-4.336 A0 B0 C180 F2000
G1 X596.498 Y133.432 Z-4.336 A0 B0 C180 F2000
G1 X596.494 Y120.852 Z-4.336 A0 B0 C180 F2000
G1 X596.5 Y114.563 Z-4.336 A0 B0 C180 F2000
G1 X596.54 Y55.012 Z-4.336 A0 B0 C180 F2000
G1 X596.562 Y54.89 Z-4.336 A0 B0 C180 F2000
G1 X596.627 Y54.649 Z-4.336 A0 B0 C180 F2000
G1 X596.711 Y54.415 Z-4.336 A0 B0 C180 F2000
G1 X596.814 Y54.188 Z-4.336 A0 B0 C180 F2000
G1 X596.935 Y53.97 Z-4.336 A0 B0 C180 F2000
G1 X597.073 Y53.762 Z-4.336 A0 B0 C180 F2000
G1 X597.227 Y53.567 Z-4.336 A0 B0 C180 F2000
G1 X597.397 Y53.384 Z-4.336 A0 B0 C180 F2000
G1 X597.581 Y53.216 Z-4.336 A0 B0 C180 F2000
G1 X597.778 Y53.064 Z-4.336 A0 B0 C180 F2000
G1 X597.986 Y52.927 Z-4.336 A0 B0 C180 F2000
G1 X598.205 Y52.808 Z-4.336 A0 B0 C180 F2000
G1 X598.433 Y52.708 Z-4.336 A0 B0 C180 F2000
G1 X598.668 Y52.626 Z-4.336 A0 B0 C180 F2000
G1 X598.909 Y52.563 Z-4.336 A0 B0 C180 F2000
G1 X599.155 Y52.52 Z-4.336 A0 B0 C180 F2000
G1 X599.279 Y52.508 Z-4.336 A0 B0 C180 F2000
G1 X605.631 Y52.497 Z-4.336 A0 B0 C180 F2000
G1 X618.335 Y52.493 Z-4.336 A0 B0 C180 F2000
G1 X624.687 Y52.5 Z-4.336 A0 B0 C180 F2000
G1 X640.236 Y52.5 Z-4.336 A0 B0 C180 F2000
G1 X640.325 Y52.5 Z-4.35 A0 B0 C180 F1080
G1 X640.499 Y52.5 Z-4.396 A0 B0 C180 F1080
G1 X640.667 Y52.501 Z-4.459 A0 B0 C180 F1080
G1 X640.827 Y52.501 Z-4.54 A0 B0 C180 F1080
G1 X640.902 Y52.501 Z-4.589 A0 B0 C180 F1080
G1 X641.134 Y52.5 Z-4.636 A0 B0 C180 F1080
G1 X661.5 Y52.5 Z-4.636 A0 B0 C180 F2000
G1 X723.901 Y52.527 Z-4.636 A0 B0 C180 F2000
G1 X724.018 Y52.545 Z-4.636 A0 B0 C180 F2000
G1 X724.25 Y52.599 Z-4.636 A0 B0 C180 F2000
G1 X724.477 Y52.672 Z-4.636 A0 B0 C180 F2000
G1 X724.697 Y52.761 Z-4.636 A0 B0 C180 F2000
G1 X724.91 Y52.867 Z-4.636 A0 B0 C180 F2000
G1 X725.115 Y52.989 Z-4.636 A0 B0 C180 F2000
G1 X725.309 Y53.127 Z-4.636 A0 B0 C180 F2000
G1 X725.492 Y53.279 Z-4.636 A0 B0 C180 F2000
G1 X725.662 Y53.445 Z-4.636 A0 B0 C180 F2000
G1 X725.82 Y53.623 Z-4.636 A0 B0 C180 F2000
G1 X725.963 Y53.814 Z-4.636 A0 B0 C180 F2000
G1 X726.091 Y54.014 Z-4.636 A0 B0 C180 F2000
G1 X726.203 Y54.224 Z-4.636 A0 B0 C180 F2000
G1 X726.299 Y54.442 Z-4.636 A0 B0 C180 F2000
G1 X726.378 Y54.667 Z-4.636 A0 B0 C180 F2000
G1 X726.439 Y54.897 Z-4.636 A0 B0 C180 F2000
G1 X726.46 Y55.014 Z-4.636 A0 B0 C180 F2000
G1 X726.483 Y61.637 Z-4.636 A0 B0 C180 F2000
G1 X726.511 Y74.883 Z-4.636 A0 B0 C180 F2000
G1 X726.52 Y88.13 Z-4.636 A0 B0 C180 F2000
G1 X726.513 Y101.377 Z-4.636 A0 B0 C180 F2000
G1 X726.5 Y108 Z-4.636 A0 B0 C180 F2000
G1 X726.515 Y111.999 Z-4.636 A0 B0 C180 F2000
G1 X726.524 Y119.997 Z-4.636 A0 B0 C180 F2000
G1 X726.514 Y127.996 Z-4.636 A0 B0 C180 F2000
G1 X726.484 Y135.994 Z-4.636 A0 B0 C180 F2000
G1 X726.459 Y139.993 Z-4.636 A0 B0 C180 F2000
G1 X726.438 Y140.107 Z-4.636 A0 B0 C180 F2000
G1 X726.378 Y140.332 Z-4.636 A0 B0 C180 F2000
G1 X726.302 Y140.551 Z-4.636 A0 B0 C180 F2000
G1 X726.209 Y140.764 Z-4.636 A0 B0 C180 F2000
G1 X726.101 Y140.969 Z-4.636 A0 B0 C180 F2000
G1 X725.977 Y141.166 Z-4.636 A0 B0 C180 F2000
G1 X725.839 Y141.353 Z-4.636 A0 B0 C180 F2000
G1 X725.688 Y141.528 Z-4.636 A0 B0 C180 F2000
G1 X725.523 Y141.692 Z-4.636 A0 B0 C180 F2000
G1 X725.347 Y141.844 Z-4.636 A0 B0 C180 F2000
G1 X725.16 Y141.981 Z-4.636 A0 B0 C180 F2000
G1 X724.963 Y142.104 Z-4.636 A0 B0 C180 F2000
G1 X724.758 Y142.212 Z-4.636 A0 B0 C180 F2000
G1 X724.545 Y142.304 Z-4.636 A0 B0 C180 F2000
G1 X724.325 Y142.38 Z-4.636 A0 B0 C180 F2000
G1 X724.101 Y142.439 Z-4.636 A0 B0 C180 F2000
G1 X723.986 Y142.46 Z-4.636 A0 B0 C180 F2000
G1 X723.684 Y142.488 Z-4.636 A0 B0 C180 F2000
G1 X723.078 Y142.52 Z-4.636 A0 B0 C180 F2000
G1 X722.472 Y142.53 Z-4.636 A0 B0 C180 F2000
G1 X721.865 Y142.517 Z-4.636 A0 B0 C180 F2000
G1 X721.562 Y142.5 Z-4.636 A0 B0 C180 F2000
G1 X599.099 Y142.473 Z-4.636 A0 B0 C180 F2000
G1 X598.982 Y142.455 Z-4.636 A0 B0 C180 F2000
G1 X598.75 Y142.401 Z-4.636 A0 B0 C180 F2000
G1 X598.523 Y142.328 Z-4.636 A0 B0 C180 F2000
G1 X598.303 Y142.239 Z-4.636 A0 B0 C180 F2000
G1 X598.09 Y142.133 Z-4.636 A0 B0 C180 F2000
G1 X597.885 Y142.011 Z-4.636 A0 B0 C180 F2000
G1 X597.691 Y141.873 Z-4.636 A0 B0 C180 F2000
G1 X597.508 Y141.721 Z-4.636 A0 B0 C180 F2000
G1 X597.337 Y141.555 Z-4.636 A0 B0 C180 F2000
G1 X597.18 Y141.377 Z-4.636 A0 B0 C180 F2000
G1 X597.037 Y141.186 Z-4.636 A0 B0 C180 F2000
G1 X596.909 Y140.986 Z-4.636 A0 B0 C180 F2000
G1 X596.797 Y140.776 Z-4.636 A0 B0 C180 F2000
G1 X596.701 Y140.558 Z-4.636 A0 B0 C180 F2000
G1 X596.622 Y140.333 Z-4.636 A0 B0 C180 F2000
G1 X596.561 Y140.103 Z-4.636 A0 B0 C180 F2000
G1 X596.54 Y139.986 Z-4.636 A0 B0 C180 F2000
G1 X596.517 Y133.363 Z-4.636 A0 B0 C180 F2000
G1 X596.489 Y120.117 Z-4.636 A0 B0 C180 F2000
G1 X596.48 Y106.87 Z-4.636 A0 B0 C180 F2000
G1 X596.487 Y93.623 Z-4.636 A0 B0 C180 F2000
G1 X596.5 Y87 Z-4.636 A0 B0 C180 F2000
G1 X596.485 Y83.001 Z-4.636 A0 B0 C180 F2000
G1 X596.476 Y75.003 Z-4.636 A0 B0 C180 F2000
G1 X596.486 Y67.004 Z-4.636 A0 B0 C180 F2000
G1 X596.516 Y59.006 Z-4.636 A0 B0 C180 F2000
G1 X596.541 Y55.007 Z-4.636 A0 B0 C180 F2000
G1 X596.562 Y54.893 Z-4.636 A0 B0 C180 F2000
G1 X596.622 Y54.668 Z-4.636 A0 B0 C180 F2000
G1 X596.698 Y54.449 Z-4.636 A0 B0 C180 F2000
G1 X596.791 Y54.236 Z-4.636 A0 B0 C180 F2000
G1 X596.899 Y54.031 Z-4.636 A0 B0 C180 F2000
G1 X597.023 Y53.834 Z-4.636 A0 B0 C180 F2000
G1 X597.161 Y53.647 Z-4.636 A0 B0 C180 F2000
G1 X597.312 Y53.472 Z-4.636 A0 B0 C180 F2000
G1 X597.477 Y53.308 Z-4.636 A0 B0 C180 F2000
G1 X597.653 Y53.156 Z-4.636 A0 B0 C180 F2000
G1 X597.84 Y53.019 Z-4.636 A0 B0 C180 F2000
G1 X598.037 Y52.896 Z-4.636 A0 B0 C180 F2000
G1 X598.242 Y52.788 Z-4.636 A0 B0 C180 F2000
G1 X598.455 Y52.696 Z-4.636 A0 B0 C180 F2000
G1 X598.675 Y52.62 Z-4.636 A0 B0 C180 F2000
G1 X598.899 Y52.561 Z-4.636 A0 B0 C180 F2000
G1 X599.014 Y52.54 Z-4.636 A0 B0 C180 F2000
G1 X599.316 Y52.512 Z-4.636 A0 B0 C180 F2000
G1 X599.922 Y52.48 Z-4.636 A0 B0 C180 F2000
G1 X600.528 Y52.47 Z-4.636 A0 B0 C180 F2000
G1 X601.135 Y52.483 Z-4.636 A0 B0 C180 F2000
G1 X601.437 Y52.5 Z-4.636 A0 B0 C180 F2000
G1 X641.134 Y52.5 Z-4.636 A0 B0 C180 F2000
G1 X641.222 Y52.5 Z-4.649 A0 B0 C180 F1080
G1 X641.396 Y52.5 Z-4.695 A0 B0 C180 F1080
G1 X641.564 Y52.501 Z-4.758 A0 B0 C180 F1080
G1 X641.724 Y52.501 Z-4.839 A0 B0 C180 F1080
G1 X641.8 Y52.501 Z-4.888 A0 B0 C180 F1080
G1 X642.031 Y52.5 Z-4.935 A0 B0 C180 F1080
G1 X661.5 Y52.5 Z-4.935 A0 B0 C180 F2000
G1 X723.95 Y52.534 Z-4.935 A0 B0 C180 F2000
G1 X724.025 Y52.547 Z-4.935 A0 B0 C180 F2000
G1 X724.174 Y52.58 Z-4.935 A0 B0 C180 F2000
G1 X724.321 Y52.62 Z-4.935 A0 B0 C180 F2000
G1 X724.465 Y52.668 Z-4.935 A0 B0 C180 F2000
G1 X724.608 Y52.722 Z-4.935 A0 B0 C180 F2000
G1 X724.747 Y52.784 Z-4.935 A0 B0 C180 F2000
G1 X724.884 Y52.852 Z-4.935 A0 B0 C180 F2000
G1 X725.016 Y52.927 Z-4.935 A0 B0 C180 F2000
G1 X725.145 Y53.008 Z-4.935 A0 B0 C180 F2000
G1 X725.27 Y53.095 Z-4.935 A0 B0 C180 F2000
G1 X725.391 Y53.188 Z-4.935 A0 B0 C180 F2000
G1 X725.507 Y53.287 Z-4.935 A0 B0 C180 F2000
G1 X725.618 Y53.392 Z-4.935 A0 B0 C180 F2000
G1 X725.723 Y53.502 Z-4.935 A0 B0 C180 F2000
G1 X725.823 Y53.617 Z-4.935 A0 B0 C180 F2000
G1 X725.918 Y53.736 Z-4.935 A0 B0 C180 F2000
G1 X726.006 Y53.861 Z-4.935 A0 B0 C180 F2000
G1 X726.088 Y53.989 Z-4.935 A0 B0 C180 F2000
G1 X726.164 Y54.121 Z-4.935 A0 B0 C180 F2000
G1 X726.234 Y54.257 Z-4.935 A0 B0 C180 F2000
G1 X726.296 Y54.396 Z-4.935 A0 B0 C180 F2000
G1 X726.352 Y54.537 Z-4.935 A0 B0 C180 F2000
G1 X726.401 Y54.682 Z-4.935 A0 B0 C180 F2000
G1 X726.443 Y54.828 Z-4.935 A0 B0 C180 F2000
G1 X726.477 Y54.977 Z-4.935 A0 B0 C180 F2000
G1 X726.504 Y55.127 Z-4.935 A0 B0 C180 F2000
G1 X726.524 Y55.278 Z-4.935 A0 B0 C180 F2000
G1 X726.537 Y55.43 Z-4.935 A0 B0 C180 F2000
G1 X726.542 Y55.582 Z-4.935 A0 B0 C180 F2000
G1 X726.539 Y55.735 Z-4.935 A0 B0 C180 F2000
G1 X726.53 Y55.887 Z-4.935 A0 B0 C180 F2000
G1 X726.512 Y56.038 Z-4.935 A0 B0 C180 F2000
G1 X726.5 Y56.113 Z-4.935 A0 B0 C180 F2000
G1 X726.466 Y139.95 Z-4.935 A0 B0 C180 F2000
G1 X726.446 Y140.081 Z-4.935 A0 B0 C180 F2000
G1 X726.383 Y140.34 Z-4.935 A0 B0 C180 F2000
G1 X726.297 Y140.593 Z-4.935 A0 B0 C180 F2000
G1 X726.189 Y140.836 Z-4.935 A0 B0 C180 F2000
G1 X726.06 Y141.069 Z-4.935 A0 B0 C180 F2000
G1 X725.911 Y141.29 Z-4.935 A0 B0 C180 F2000
G1 X725.743 Y141.497 Z-4.935 A0 B0 C180 F2000
G1 X725.557 Y141.688 Z-4.935 A0 B0 C180 F2000
G1 X725.355 Y141.862 Z-4.935 A0 B0 C180 F2000
G1 X725.138 Y142.017 Z-4.935 A0 B0 C180 F2000
G1 X724.909 Y142.152 Z-4.935 A0 B0 C180 F2000
G1 X724.668 Y142.267 Z-4.935 A0 B0 C180 F2000
G1 X724.418 Y142.359 Z-4.935 A0 B0 C180 F2000
G1 X724.161 Y142.429 Z-4.935 A0 B0 C180 F2000
G1 X723.899 Y142.476 Z-4.935 A0 B0 C180 F2000
G1 X723.633 Y142.5 Z-4.935 A0 B0 C180 F2000
G1 X723.5 Y142.5 Z-4.935 A0 B0 C180 F2000
G1 X599.05 Y142.466 Z-4.935 A0 B0 C180 F2000
G1 X598.975 Y142.453 Z-4.935 A0 B0 C180 F2000
G1 X598.826 Y142.42 Z-4.935 A0 B0 C180 F2000
G1 X598.679 Y142.38 Z-4.935 A0 B0 C180 F2000
G1 X598.535 Y142.332 Z-4.935 A0 B0 C180 F2000
G1 X598.392 Y142.278 Z-4.935 A0 B0 C180 F2000
G1 X598.253 Y142.216 Z-4.935 A0 B0 C180 F2000
G1 X598.116 Y142.148 Z-4.935 A0 B0 C180 F2000
G1 X597.984 Y142.073 Z-4.935 A0 B0 C180 F2000
G1 X597.854 Y141.992 Z-4.935 A0 B0 C180 F2000
G1 X597.73 Y141.905 Z-4.935 A0 B0 C180 F2000
G1 X597.609 Y141.812 Z-4.935 A0 B0 C180 F2000
G1 X597.493 Y141.713 Z-4.935 A0 B0 C180 F2000
G1 X597.382 Y141.608 Z-4.935 A0 B0 C180 F2000
G1 X597.277 Y141.498 Z-4.935 A0 B0 C180 F2000
G1 X597.177 Y141.383 Z-4.935 A0 B0 C180 F2000
G1 X597.082 Y141.264 Z-4.935 A0 B0 C180 F2000
G1 X596.994 Y141.139 Z-4.935 A0 B0 C180 F2000
G1 X596.912 Y141.011 Z-4.935 A0 B0 C180 F2000
G1 X596.836 Y140.879 Z-4.935 A0 B0 C180 F2000
G1 X596.766 Y140.743 Z-4.935 A0 B0 C180 F2000
G1 X596.704 Y140.604 Z-4.935 A0 B0 C180 F2000
G1 X596.648 Y140.463 Z-4.935 A0 B0 C180 F2000
G1 X596.599 Y140.318 Z-4.935 A0 B0 C180 F2000
G1 X596.557 Y140.172 Z-4.935 A0 B0 C180 F2000
G1 X596.523 Y140.023 Z-4.935 A0 B0 C180 F2000
G1 X596.496 Y139.873 Z-4.935 A0 B0 C180 F2000
G1 X596.476 Y139.722 Z-4.935 A0 B0 C180 F2000
G1 X596.463 Y139.57 Z-4.935 A0 B0 C180 F2000
G1 X596.458 Y139.418 Z-4.935 A0 B0 C180 F2000
G1 X596.461 Y139.265 Z-4.935 A0 B0 C180 F2000
G1 X596.47 Y139.113 Z-4.935 A0 B0 C180 F2000
G1 X596.488 Y138.962 Z-4.935 A0 B0 C180 F2000
G1 X596.5 Y138.887 Z-4.935 A0 B0 C180 F2000
G1 X596.534 Y55.05 Z-4.935 A0 B0 C180 F2000
G1 X596.554 Y54.919 Z-4.935 A0 B0 C180 F2000
G1 X596.617 Y54.66 Z-4.935 A0 B0 C180 F2000
G1 X596.703 Y54.407 Z-4.935 A0 B0 C180 F2000
G1 X596.811 Y54.164 Z-4.935 A0 B0 C180 F2000
G1 X596.94 Y53.931 Z-4.935 A0 B0 C180 F2000
G1 X597.089 Y53.71 Z-4.935 A0 B0 C180 F2000
G1 X597.257 Y53.503 Z-4.935 A0 B0 C180 F2000
G1 X597.443 Y53.312 Z-4.935 A0 B0 C180 F2000
G1 X597.645 Y53.138 Z-4.935 A0 B0 C180 F2000
G1 X597.862 Y52.983 Z-4.935 A0 B0 C180 F2000
G1 X598.091 Y52.848 Z-4.935 A0 B0 C180 F2000
G1 X598.332 Y52.733 Z-4.935 A0 B0 C180 F2000
G1 X598.582 Y52.641 Z-4.935 A0 B0 C180 F2000
G1 X598.839 Y52.571 Z-4.935 A0 B0 C180 F2000
G1 X599.101 Y52.524 Z-4.935 A0 B0 C180 F2000
G1 X599.367 Y52.5 Z-4.935 A0 B0 C180 F2000
G1 X599.5 Y52.5 Z-4.935 A0 B0 C180 F2000
G1 X642.031 Y52.5 Z-4.935 A0 B0 C180 F2000
G1 X642.12 Y52.5 Z-4.948 A0 B0 C180 F1080
G1 X642.293 Y52.5 Z-4.994 A0 B0 C180 F1080
G1 X642.461 Y52.501 Z-5.057 A0 B0 C180 F1080
G1 X642.621 Y52.501 Z-5.138 A0 B0 C180 F1080
G1 X642.697 Y52.501 Z-5.187 A0 B0 C180 F1080
G1 X642.928 Y52.5 Z-5.234 A0 B0 C180 F1080
G1 X661.5 Y52.5 Z-5.234 A0 B0 C180 F2000
G1 X723.906 Y52.528 Z-5.234 A0 B0 C180 F2000
G1 X724.024 Y52.546 Z-5.234 A0 B0 C180 F2000
G1 X724.256 Y52.601 Z-5.234 A0 B0 C180 F2000
G1 X724.483 Y52.674 Z-5.234 A0 B0 C180 F2000
G1 X724.704 Y52.764 Z-5.234 A0 B0 C180 F2000
G1 X724.917 Y52.871 Z-5.234 A0 B0 C180 F2000
G1 X725.121 Y52.994 Z-5.234 A0 B0 C180 F2000
G1 X725.315 Y53.132 Z-5.234 A0 B0 C180 F2000
G1 X725.498 Y53.285 Z-5.234 A0 B0 C180 F2000
G1 X725.669 Y53.452 Z-5.234 A0 B0 C180 F2000
G1 X725.826 Y53.631 Z-5.234 A0 B0 C180 F2000
G1 X725.969 Y53.822 Z-5.234 A0 B0 C180 F2000
G1 X726.096 Y54.023 Z-5.234 A0 B0 C180 F2000
G1 X726.208 Y54.234 Z-5.234 A0 B0 C180 F2000
G1 X726.303 Y54.452 Z-5.234 A0 B0 C180 F2000
G1 X726.381 Y54.678 Z-5.234 A0 B0 C180 F2000
G1 X726.441 Y54.908 Z-5.234 A0 B0 C180 F2000
G1 X726.462 Y55.026 Z-5.234 A0 B0 C180 F2000
G1 X726.483 Y61.155 Z-5.234 A0 B0 C180 F2000
G1 X726.508 Y73.415 Z-5.234 A0 B0 C180 F2000
G1 X726.518 Y85.674 Z-5.234 A0 B0 C180 F2000
G1 X726.511 Y97.933 Z-5.234 A0 B0 C180 F2000
G1 X726.5 Y104.063 Z-5.234 A0 B0 C180 F2000
G1 X726.472 Y139.906 Z-5.234 A0 B0 C180 F2000
G1 X726.454 Y140.024 Z-5.234 A0 B0 C180 F2000
G1 X726.399 Y140.256 Z-5.234 A0 B0 C180 F2000
G1 X726.326 Y140.483 Z-5.234 A0 B0 C180 F2000
G1 X726.236 Y140.704 Z-5.234 A0 B0 C180 F2000
G1 X726.129 Y140.917 Z-5.234 A0 B0 C180 F2000
G1 X726.006 Y141.121 Z-5.234 A0 B0 C180 F2000
G1 X725.868 Y141.315 Z-5.234 A0 B0 C180 F2000
G1 X725.715 Y141.498 Z-5.234 A0 B0 C180 F2000
G1 X725.548 Y141.669 Z-5.234 A0 B0 C180 F2000
G1 X725.369 Y141.826 Z-5.234 A0 B0 C180 F2000
G1 X725.178 Y141.969 Z-5.234 A0 B0 C180 F2000
G1 X724.977 Y142.096 Z-5.234 A0 B0 C180 F2000
G1 X724.766 Y142.208 Z-5.234 A0 B0 C180 F2000
G1 X724.547 Y142.303 Z-5.234 A0 B0 C180 F2000
G1 X724.322 Y142.381 Z-5.234 A0 B0 C180 F2000
G1 X724.091 Y142.441 Z-5.234 A0 B0 C180 F2000
G1 X723.974 Y142.462 Z-5.234 A0 B0 C180 F2000
G1 X717.618 Y142.484 Z-5.234 A0 B0 C180 F2000
G1 X704.906 Y142.51 Z-5.234 A0 B0 C180 F2000
G1 X692.193 Y142.519 Z-5.234 A0 B0 C180 F2000
G1 X679.481 Y142.512 Z-5.234 A0 B0 C180 F2000
G1 X673.125 Y142.5 Z-5.234 A0 B0 C180 F2000
G1 X599.094 Y142.472 Z-5.234 A0 B0 C180 F2000
G1 X598.976 Y142.454 Z-5.234 A0 B0 C180 F2000
G1 X598.744 Y142.399 Z-5.234 A0 B0 C180 F2000
G1 X598.517 Y142.326 Z-5.234 A0 B0 C180 F2000
G1 X598.296 Y142.236 Z-5.234 A0 B0 C180 F2000
G1 X598.083 Y142.129 Z-5.234 A0 B0 C180 F2000
G1 X597.879 Y142.006 Z-5.234 A0 B0 C180 F2000
G1 X597.685 Y141.868 Z-5.234 A0 B0 C180 F2000
G1 X597.502 Y141.715 Z-5.234 A0 B0 C180 F2000
G1 X597.331 Y141.548 Z-5.234 A0 B0 C180 F2000
G1 X597.174 Y141.369 Z-5.234 A0 B0 C180 F2000
G1 X597.031 Y141.178 Z-5.234 A0 B0 C180 F2000
G1 X596.904 Y140.977 Z-5.234 A0 B0 C180 F2000
G1 X596.792 Y140.766 Z-5.234 A0 B0 C180 F2000
G1 X596.697 Y140.548 Z-5.234 A0 B0 C180 F2000
G1 X596.619 Y140.322 Z-5.234 A0 B0 C180 F2000
G1 X596.559 Y140.092 Z-5.234 A0 B0 C180 F2000
G1 X596.538 Y139.974 Z-5.234 A0 B0 C180 F2000
G1 X596.517 Y133.845 Z-5.234 A0 B0 C180 F2000
G1 X596.492 Y121.585 Z-5.234 A0 B0 C180 F2000
G1 X596.482 Y109.326 Z-5.234 A0 B0 C180 F2000
G1 X596.489 Y97.067 Z-5.234 A0 B0 C180 F2000
G1 X596.5 Y90.938 Z-5.234 A0 B0 C180 F2000
G1 X596.528 Y55.094 Z-5.234 A0 B0 C180 F2000
G1 X596.546 Y54.976 Z-5.234 A0 B0 C180 F2000
G1 X596.601 Y54.744 Z-5.234 A0 B0 C180 F2000
G1 X596.674 Y54.517 Z-5.234 A0 B0 C180 F2000
G1 X596.764 Y54.296 Z-5.234 A0 B0 C180 F2000
G1 X596.871 Y54.083 Z-5.234 A0 B0 C180 F2000
G1 X596.994 Y53.879 Z-5.234 A0 B0 C180 F2000
G1 X597.132 Y53.685 Z-5.234 A0 B0 C180 F2000
G1 X597.285 Y53.502 Z-5.234 A0 B0 C180 F2000
G1 X597.452 Y53.331 Z-5.234 A0 B0 C180 F2000
G1 X597.631 Y53.174 Z-5.234 A0 B0 C180 F2000
G1 X597.822 Y53.031 Z-5.234 A0 B0 C180 F2000
G1 X598.023 Y52.904 Z-5.234 A0 B0 C180 F2000
G1 X598.234 Y52.792 Z-5.234 A0 B0 C180 F2000
G1 X598.452 Y52.697 Z-5.234 A0 B0 C180 F2000
G1 X598.678 Y52.619 Z-5.234 A0 B0 C180 F2000
G1 X598.908 Y52.559 Z-5.234 A0 B0 C180 F2000
G1 X599.026 Y52.538 Z-5.234 A0 B0 C180 F2000
G1 X604.514 Y52.516 Z-5.234 A0 B0 C180 F2000
G1 X615.489 Y52.49 Z-5.234 A0 B0 C180 F2000
G1 X626.465 Y52.48 Z-5.234 A0 B0 C180 F2000
G1 X637.44 Y52.488 Z-5.234 A0 B0 C180 F2000
G1 X642.928 Y52.5 Z-5.234 A0 B0 C180 F2000
G1 X643.017 Y52.5 Z-5.247 A0 B0 C180 F1080
G1 X643.19 Y52.5 Z-5.293 A0 B0 C180 F1080
G1 X643.358 Y52.501 Z-5.356 A0 B0 C180 F1080
G1 X643.519 Y52.501 Z-5.437 A0 B0 C180 F1080
G1 X643.594 Y52.501 Z-5.486 A0 B0 C180 F1080
G1 X643.825 Y52.5 Z-5.533 A0 B0 C180 F1080
G1 X661.5 Y52.5 Z-5.533 A0 B0 C180 F2000
G1 X723.974 Y52.538 Z-5.533 A0 B0 C180 F2000
G1 X724.088 Y52.558 Z-5.533 A0 B0 C180 F2000
G1 X724.312 Y52.616 Z-5.533 A0 B0 C180 F2000
G1 X724.531 Y52.691 Z-5.533 A0 B0 C180 F2000
G1 X724.744 Y52.781 Z-5.533 A0 B0 C180 F2000
G1 X724.95 Y52.888 Z-5.533 A0 B0 C180 F2000
G1 X725.147 Y53.009 Z-5.533 A0 B0 C180 F2000
G1 X725.334 Y53.145 Z-5.533 A0 B0 C180 F2000
G1 X725.51 Y53.295 Z-5.533 A0 B0 C180 F2000
G1 X725.675 Y53.457 Z-5.533 A0 B0 C180 F2000
G1 X725.827 Y53.632 Z-5.533 A0 B0 C180 F2000
G1 X725.966 Y53.817 Z-5.533 A0 B0 C180 F2000
G1 X726.091 Y54.012 Z-5.533 A0 B0 C180 F2000
G1 X726.2 Y54.216 Z-5.533 A0 B0 C180 F2000
G1 X726.294 Y54.428 Z-5.533 A0 B0 C180 F2000
G1 X726.372 Y54.646 Z-5.533 A0 B0 C180 F2000
G1 X726.433 Y54.869 Z-5.533 A0 B0 C180 F2000
G1 X726.455 Y54.982 Z-5.533 A0 B0 C180 F2000
G1 X726.484 Y57.836 Z-5.533 A0 B0 C180 F2000
G1 X726.518 Y63.544 Z-5.533 A0 B0 C180 F2000
G1 X726.529 Y69.251 Z-5.533 A0 B0 C180 F2000
G1 X726.517 Y74.959 Z-5.533 A0 B0 C180 F2000
G1 X726.5 Y77.813 Z-5.533 A0 B0 C180 F2000
G1 X726.462 Y139.974 Z-5.533 A0 B0 C180 F2000
G1 X726.442 Y140.088 Z-5.533 A0 B0 C180 F2000
G1 X726.384 Y140.312 Z-5.533 A0 B0 C180 F2000
G1 X726.309 Y140.531 Z-5.533 A0 B0 C180 F2000
G1 X726.219 Y140.744 Z-5.533 A0 B0 C180 F2000
G1 X726.112 Y140.95 Z-5.533 A0 B0 C180 F2000
G1 X725.991 Y141.147 Z-5.533 A0 B0 C180 F2000
G1 X725.855 Y141.334 Z-5.533 A0 B0 C180 F2000
G1 X725.705 Y141.51 Z-5.533 A0 B0 C180 F2000
G1 X725.542 Y141.675 Z-5.533 A0 B0 C180 F2000
G1 X725.368 Y141.827 Z-5.533 A0 B0 C180 F2000
G1 X725.183 Y141.966 Z-5.533 A0 B0 C180 F2000
G1 X724.988 Y142.091 Z-5.533 A0 B0 C180 F2000
G1 X724.784 Y142.2 Z-5.533 A0 B0 C180 F2000
G1 X724.572 Y142.294 Z-5.533 A0 B0 C180 F2000
G1 X724.354 Y142.372 Z-5.533 A0 B0 C180 F2000
G1 X724.131 Y142.433 Z-5.533 A0 B0 C180 F2000
G1 X724.018 Y142.455 Z-5.533 A0 B0 C180 F2000
G1 X723.743 Y142.472 Z-5.533 A0 B0 C180 F2000
G1 X723.195 Y142.499 Z-5.533 A0 B0 C180 F2000
G1 X722.646 Y142.519 Z-5.533 A0 B0 C180 F2000
G1 X722.097 Y142.532 Z-5.533 A0 B0 C180 F2000
G1 X721.547 Y142.537 Z-5.533 A0 B0 C180 F2000
G1 X720.998 Y142.536 Z-5.533 A0 B0 C180 F2000
G1 X720.449 Y142.527 Z-5.533 A0 B0 C180 F2000
G1 X719.899 Y142.511 Z-5.533 A0 B0 C180 F2000
G1 X719.625 Y142.5 Z-5.533 A0 B0 C180 F2000
G1 X599.026 Y142.462 Z-5.533 A0 B0 C180 F2000
G1 X598.912 Y142.442 Z-5.533 A0 B0 C180 F2000
G1 X598.688 Y142.384 Z-5.533 A0 B0 C180 F2000
G1 X598.469 Y142.309 Z-5.533 A0 B0 C180 F2000
G1 X598.256 Y142.219 Z-5.533 A0 B0 C180 F2000
G1 X598.05 Y142.112 Z-5.533 A0 B0 C180 F2000
G1 X597.853 Y141.991 Z-5.533 A0 B0 C180 F2000
G1 X597.666 Y141.855 Z-5.533 A0 B0 C180 F2000
G1 X597.49 Y141.705 Z-5.533 A0 B0 C180 F2000
G1 X597.325 Y141.543 Z-5.533 A0 B0 C180 F2000
G1 X597.173 Y141.368 Z-5.533 A0 B0 C180 F2000
G1 X597.034 Y141.183 Z-5.533 A0 B0 C180 F2000
G1 X596.909 Y140.988 Z-5.533 A0 B0 C180 F2000
G1 X596.8 Y140.784 Z-5.533 A0 B0 C180 F2000
G1 X596.706 Y140.572 Z-5.533 A0 B0 C180 F2000
G1 X596.628 Y140.354 Z-5.533 A0 B0 C180 F2000
G1 X596.567 Y140.131 Z-5.533 A0 B0 C180 F2000
G1 X596.545 Y140.018 Z-5.533 A0 B0 C180 F2000
G1 X596.516 Y137.164 Z-5.533 A0 B0 C180 F2000
G1 X596.482 Y131.456 Z-5.533 A0 B0 C180 F2000
G1 X596.471 Y125.749 Z-5.533 A0 B0 C180 F2000
G1 X596.483 Y120.041 Z-5.533 A0 B0 C180 F2000
G1 X596.5 Y117.188 Z-5.533 A0 B0 C180 F2000
G1 X596.538 Y55.026 Z-5.533 A0 B0 C180 F2000
G1 X596.558 Y54.912 Z-5.533 A0 B0 C180 F2000
G1 X596.616 Y54.688 Z-5.533 A0 B0 C180 F2000
G1 X596.691 Y54.469 Z-5.533 A0 B0 C180 F2000
G1 X596.781 Y54.256 Z-5.533 A0 B0 C180 F2000
G1 X596.888 Y54.05 Z-5.533 A0 B0 C180 F2000
G1 X597.009 Y53.853 Z-5.533 A0 B0 C180 F2000
G1 X597.145 Y53.666 Z-5.533 A0 B0 C180 F2000
G1 X597.295 Y53.49 Z-5.533 A0 B0 C180 F2000
G1 X597.457 Y53.325 Z-5.533 A0 B0 C180 F2000
G1 X597.632 Y53.173 Z-5.533 A0 B0 C180 F2000
G1 X597.817 Y53.034 Z-5.533 A0 B0 C180 F2000
G1 X598.012 Y52.909 Z-5.533 A0 B0 C180 F2000
G1 X598.216 Y52.8 Z-5.533 A0 B0 C180 F2000
G1 X598.428 Y52.706 Z-5.533 A0 B0 C180 F2000
G1 X598.646 Y52.628 Z-5.533 A0 B0 C180 F2000
G1 X598.869 Y52.567 Z-5.533 A0 B0 C180 F2000
G1 X598.982 Y52.545 Z-5.533 A0 B0 C180 F2000
G1 X599.256 Y52.528 Z-5.533 A0 B0 C180 F2000
G1 X599.805 Y52.501 Z-5.533 A0 B0 C180 F2000
G1 X600.354 Y52.481 Z-5.533 A0 B0 C180 F2000
G1 X600.903 Y52.468 Z-5.533 A0 B0 C180 F2000
G1 X601.453 Y52.463 Z-5.533 A0 B0 C180 F2000
G1 X602.002 Y52.464 Z-5.533 A0 B0 C180 F2000
G1 X602.551 Y52.473 Z-5.533 A0 B0 C180 F2000
G1 X603.101 Y52.489 Z-5.533 A0 B0 C180 F2000
G1 X603.375 Y52.5 Z-5.533 A0 B0 C180 F2000
G1 X643.825 Y52.5 Z-5.533 A0 B0 C180 F2000
G1 X643.914 Y52.5 Z-5.546 A0 B0 C180 F1080
G1 X644.088 Y52.5 Z-5.592 A0 B0 C180 F1080
G1 X644.256 Y52.501 Z-5.656 A0 B0 C180 F1080
G1 X644.416 Y52.501 Z-5.736 A0 B0 C180 F1080
G1 X644.491 Y52.501 Z-5.785 A0 B0 C180 F1080
G1 X644.723 Y52.5 Z-5.832 A0 B0 C180 F1080
G1 X661.5 Y52.5 Z-5.832 A0 B0 C180 F2000
G1 X723.952 Y52.534 Z-5.832 A0 B0 C180 F2000
G1 X724.066 Y52.554 Z-5.832 A0 B0 C180 F2000
G1 X724.289 Y52.61 Z-5.832 A0 B0 C180 F2000
G1 X724.507 Y52.682 Z-5.832 A0 B0 C180 F2000
G1 X724.72 Y52.77 Z-5.832 A0 B0 C180 F2000
G1 X724.925 Y52.874 Z-5.832 A0 B0 C180 F2000
G1 X725.122 Y52.993 Z-5.832 A0 B0 C180 F2000
G1 X725.31 Y53.126 Z-5.832 A0 B0 C180 F2000
G1 X725.487 Y53.273 Z-5.832 A0 B0 C180 F2000
G1 X725.652 Y53.433 Z-5.832 A0 B0 C180 F2000
G1 X725.806 Y53.604 Z-5.832 A0 B0 C180 F2000
G1 X725.946 Y53.787 Z-5.832 A0 B0 C180 F2000
G1 X726.072 Y53.979 Z-5.832 A0 B0 C180 F2000
G1 X726.183 Y54.181 Z-5.832 A0 B0 C180 F2000
G1 X726.279 Y54.39 Z-5.832 A0 B0 C180 F2000
G1 X726.36 Y54.605 Z-5.832 A0 B0 C180 F2000
G1 X726.423 Y54.826 Z-5.832 A0 B0 C180 F2000
G1 X726.447 Y54.939 Z-5.832 A0 B0 C180 F2000
G1 X726.466 Y55.384 Z-5.832 A0 B0 C180 F2000
G1 X726.496 Y56.274 Z-5.832 A0 B0 C180 F2000
G1 X726.518 Y57.164 Z-5.832 A0 B0 C180 F2000
G1 X726.532 Y58.055 Z-5.832 A0 B0 C180 F2000
G1 X726.539 Y58.946 Z-5.832 A0 B0 C180 F2000
G1 X726.538 Y59.836 Z-5.832 A0 B0 C180 F2000
G1 X726.529 Y60.727 Z-5.832 A0 B0 C180 F2000
G1 X726.512 Y61.617 Z-5.832 A0 B0 C180 F2000
G1 X726.5 Y62.063 Z-5.832 A0 B0 C180 F2000
G1 X726.466 Y139.952 Z-5.832 A0 B0 C180 F2000
G1 X726.446 Y140.066 Z-5.832 A0 B0 C180 F2000
G1 X726.39 Y140.289 Z-5.832 A0 B0 C180 F2000
G1 X726.318 Y140.507 Z-5.832 A0 B0 C180 F2000
G1 X726.23 Y140.72 Z-5.832 A0 B0 C180 F2000
G1 X726.126 Y140.925 Z-5.832 A0 B0 C180 F2000
G1 X726.007 Y141.122 Z-5.832 A0 B0 C180 F2000
G1 X725.874 Y141.31 Z-5.832 A0 B0 C180 F2000
G1 X725.727 Y141.487 Z-5.832 A0 B0 C180 F2000
G1 X725.567 Y141.652 Z-5.832 A-101.815 B0 C180 F2000
G1 X725.396 Y141.806 Z-5.832 A-101.809 B0 C180 F2000
G1 X725.213 Y141.946 Z-5.832 A-101.804 B0 C180 F2000
G1 X725.021 Y142.072 Z-5.832 A-101.798 B0 C180 F2000
G1 X724.819 Y142.183 Z-5.832 A-101.792 B0 C180 F2000
G1 X724.61 Y142.279 Z-5.832 A-101.786 B0 C180 F2000
G1 X724.395 Y142.36 Z-5.832 A-101.779 B0 C180 F2000
G1 X724.173 Y142.423 Z-5.832 A-101.773 B0 C180 F2000
G1 X724.061 Y142.447 Z-5.832 A-101.77 B0 C180 F2000
G1 X723.663 Y142.465 Z-5.832 A-101.759 B0 C180 F2000
G1 X722.867 Y142.494 Z-5.832 A-101.737 B0 C180 F2000
G1 X722.07 Y142.516 Z-5.832 A-101.716 B0 C180 F2000
G1 X721.273 Y142.53 Z-5.832 A-101.694 B0 C180 F2000
G1 X720.476 Y142.537 Z-5.832 A-101.672 B0 C180 F2000
G1 X719.679 Y142.536 Z-5.832 A-101.651 B0 C180 F2000
G1 X718.883 Y142.528 Z-5.832 A-101.629 B0 C180 F2000
G1 X718.086 Y142.512 Z-5.832 A-101.608 B0 C180 F2000
G1 X717.687 Y142.5 Z-5.832 A-101.597 B0 C180 F2000
G1 X599.048 Y142.466 Z-5.832 A-98.352 B0 C180 F2000
G1 X598.934 Y142.446 Z-5.832 A-98.349 B0 C180 F2000
G1 X598.711 Y142.39 Z-5.832 A-98.343 B0 C180 F2000
G1 X598.493 Y142.318 Z-5.832 A-98.338 B0 C180 F2000
G1 X598.28 Y142.23 Z-5.832 A-98.332 B0 C180 F2000
G1 X598.075 Y142.126 Z-5.832 A-98.327 B0 C180 F2000
G1 X597.878 Y142.007 Z-5.832 A-98.322 B0 C180 F2000
G1 X597.69 Y141.874 Z-5.832 A-98.317 B0 C180 F2000
G1 X597.513 Y141.727 Z-5.832 A-98.313 B0 C180 F2000
G1 X597.348 Y141.567 Z-5.832 A-98.309 B0 C180 F2000
G1 X597.194 Y141.396 Z-5.832 A-98.305 B0 C180 F2000
G1 X597.054 Y141.213 Z-5.832 A-98.302 B0 C180 F2000
G1 X596.928 Y141.021 Z-5.832 A-98.3 B0 C180 F2000
G1 X596.817 Y140.819 Z-5.832 A-98.297 B0 C180 F2000
G1 X596.721 Y140.61 Z-5.832 A-98.295 B0 C180 F2000
G1 X596.64 Y140.395 Z-5.832 A-98.294 B0 C180 F2000
G1 X596.577 Y140.174 Z-5.832 A-98.293 B0 C180 F2000
G1 X596.553 Y140.061 Z-5.832 A-98.293 B0 C180 F2000
G1 X596.534 Y139.616 Z-5.832 A-98.294 B0 C180 F2000
G1 X596.504 Y138.726 Z-5.832 A-98.297 B0 C180 F2000
G1 X596.482 Y137.836 Z-5.832 A-98.3 B0 C180 F2000
G1 X596.468 Y136.945 Z-5.832 A-98.303 B0 C180 F2000
G1 X596.461 Y136.054 Z-5.832 A-98.307 B0 C180 F2000
G1 X596.462 Y135.164 Z-5.832 A-98.31 B0 C180 F2000
G1 X596.471 Y134.273 Z-5.832 A-98.314 B0 C180 F2000
G1 X596.488 Y133.383 Z-5.832 A-98.318 B0 C180 F2000
G1 X596.5 Y132.938 Z-5.832 A-98.32 B0 C180 F2000
G1 X596.534 Y55.048 Z-5.832 A-98.648 B0 C180 F2000
G1 X596.554 Y54.934 Z-5.832 A-98.649 B0 C180 F2000
G1 X596.61 Y54.711 Z-5.832 A-98.652 B0 C180 F2000
G1 X596.682 Y54.493 Z-5.832 A-98.655 B0 C180 F2000
G1 X596.77 Y54.28 Z-5.832 A-98.659 B0 C180 F2000
G1 X596.874 Y54.075 Z-5.832 A-98.662 B0 C180 F2000
G1 X596.993 Y53.878 Z-5.832 A-98.667 B0 C180 F2000
G1 X597.126 Y53.69 Z-5.832 A-98.671 B0 C180 F2000
G1 X597.273 Y53.513 Z-5.832 A-98.676 B0 C180 F2000
G1 X597.433 Y53.348 Z-5.832 A-98.682 B0 C180 F2000
G1 X597.604 Y53.194 Z-5.832 A-98.687 B0 C180 F2000
G1 X597.787 Y53.054 Z-5.832 A-98.693 B0 C180 F2000
G1 X597.979 Y52.928 Z-5.832 A-98.699 B0 C180 F2000
G1 X598.181 Y52.817 Z-5.832 A-98.706 B0 C180 F2000
G1 X598.39 Y52.721 Z-5.832 A-98.712 B0 C180 F2000
G1 X598.605 Y52.64 Z-5.832 A-98.719 B0 C180 F2000
G1 X598.826 Y52.577 Z-5.832 A-98.725 B0 C180 F2000
G1 X598.939 Y52.553 Z-5.832 A-98.729 B0 C180 F2000
G1 X599.337 Y52.535 Z-5.832 A-98.74 B0 C180 F2000
G1 X600.133 Y52.506 Z-5.832 A-98.763 B0 C180 F2000
G1 X600.93 Y52.484 Z-5.832 A-98.786 B0 C180 F2000
G1 X601.727 Y52.47 Z-5.832 A-98.809 B0 C180 F2000
G1 X602.524 Y52.463 Z-5.832 A-98.832 B0 C180 F2000
G1 X603.321 Y52.464 Z-5.832 A-98.855 B0 C180 F2000
G1 X604.117 Y52.473 Z-5.832 A-98.878 B0 C180 F2000
G1 X604.914 Y52.488 Z-5.832 A-98.901 B0 C180 F2000
G1 X605.312 Y52.5 Z-5.832 A-98.913 B0 C180 F2000
G1 X644.723 Y52.5 Z-5.832 A-100.044 B0 C180 F2000
G1 X644.811 Y52.5 Z-5.845 A-100.047 B0 C180 F1080
G1 X644.985 Y52.5 Z-5.891 A-100.052 B0 C180 F1080
G1 X645.153 Y52.501 Z-5.955 A-100.056 B0 C180 F1080
G1 X645.313 Y52.501 Z-6.035 A-100.061 B0 C180 F1080
G1 X645.389 Y52.501 Z-6.084 A-100.063 B0 C180 F1080
G1 X645.62 Y52.5 Z-6.131 A-100.07 B0 C180 F1080
G1 X661.5 Y52.5 Z-6.131 A-100.523 B0 C180 F2000
G1 X723.912 Y52.528 Z-6.131 A-102.293 B0 C180 F2000
G1 X724.043 Y52.549 Z-6.131 A-102.297 B0 C180 F2000
G1 X724.302 Y52.613 Z-6.131 A-102.303 B0 C180 F2000
G1 X724.554 Y52.699 Z-6.131 A-102.31 B0 C180 F2000
G1 X724.798 Y52.807 Z-6.131 A-102.316 B0 C180 F2000
G1 X725.032 Y52.935 Z-6.131 A-102.322 B0 C180 F2000
G1 X725.253 Y53.084 Z-6.131 A-102.327 B0 C180 F2000
G1 X725.461 Y53.251 Z-6.131 A-102.332 B0 C180 F2000
G1 X725.653 Y53.435 Z-6.131 A-102.336 B0 C180 F2000
G1 X725.829 Y53.635 Z-6.131 A-102.34 B0 C180 F2000
G1 X725.987 Y53.85 Z-6.131 A-102.343 B0 C180 F2000
G1 X726.125 Y54.078 Z-6.131 A-102.346 B0 C180 F2000
G1 X726.243 Y54.317 Z-6.131 A-102.348 B0 C180 F2000
G1 X726.34 Y54.565 Z-6.131 A-102.349 B0 C180 F2000
G1 X726.415 Y54.821 Z-6.131 A-102.349 B0 C180 F2000
G1 X726.467 Y55.083 Z-6.131 A-102.349 B0 C180 F2000
G1 X726.497 Y55.347 Z-6.131 A-102.348 B0 C180 F2000
G1 X726.5 Y55.481 Z-6.131 A-102.348 B0 C180 F2000
G1 X726.5 Y56.803 Z-6.131 A-102.34 B0 C180 F2000
G1 X726.5 Y58.125 Z-6.131 A-102.332 B0 C180 F2000
G1 X726.472 Y139.912 Z-6.131 A-101.849 B0 C180 F2000
G1 X726.451 Y140.043 Z-6.131 A-101.848 B0 C180 F2000
G1 X726.387 Y140.302 Z-6.131 A-101.845 B0 C180 F2000
G1 X726.301 Y140.554 Z-6.131 A-101.841 B0 C180 F2000
G1 X726.193 Y140.798 Z-6.131 A-101.837 B0 C180 F2000
G1 X726.065 Y141.032 Z-6.131 A-101.832 B0 C180 F2000
G1 X725.916 Y141.253 Z-6.131 A-101.827 B0 C180 F2000
G1 X725.749 Y141.461 Z-6.131 A-101.821 B0 C180 F2000
G1 X725.565 Y141.653 Z-6.131 A-101.815 B0 C180 F2000
G1 X725.365 Y141.829 Z-6.131 A-101.808 B0 C180 F2000
G1 X725.15 Y141.987 Z-6.131 A-101.802 B0 C180 F2000
G1 X724.922 Y142.125 Z-6.131 A-101.795 B0 C180 F2000
G1 X724.683 Y142.243 Z-6.131 A-101.788 B0 C180 F2000
G1 X724.435 Y142.34 Z-6.131 A-101.78 B0 C180 F2000
G1 X724.179 Y142.415 Z-6.131 A-101.773 B0 C180 F2000
G1 X723.917 Y142.467 Z-6.131 A-101.766 B0 C180 F2000
G1 X723.653 Y142.497 Z-6.131 A-101.758 B0 C180 F2000
G1 X723.519 Y142.5 Z-6.131 A-101.755 B0 C180 F2000
G1 X722.541 Y142.501 Z-6.131 A-101.728 B0 C180 F2000
G1 X721.562 Y142.5 Z-6.131 A-101.702 B0 C180 F2000
G1 X599.088 Y142.472 Z-6.131 A-98.353 B0 C180 F2000
G1 X598.957 Y142.451 Z-6.131 A-98.35 B0 C180 F2000
G1 X598.7 Y142.387 Z-6.131 A-98.343 B0 C180 F2000
G1 X598.449 Y142.301 Z-6.131 A-98.336 B0 C180 F2000
G1 X598.206 Y142.194 Z-6.131 A-98.33 B0 C180 F2000
G1 X597.974 Y142.067 Z-6.131 A-98.324 B0 C180 F2000
G1 X597.753 Y141.919 Z-6.131 A-98.319 B0 C180 F2000
G1 X597.546 Y141.754 Z-6.131 A-98.314 B0 C180 F2000
G1 X597.354 Y141.571 Z-6.131 A-98.309 B0 C180 F2000
G1 X597.178 Y141.372 Z-6.131 A-98.305 B0 C180 F2000
G1 X597.021 Y141.158 Z-6.131 A-98.302 B0 C180 F2000
G1 X596.882 Y140.932 Z-6.131 A-98.299 B0 C180 F2000
G1 X596.763 Y140.695 Z-6.131 A-98.296 B0 C180 F2000
G1 X596.666 Y140.448 Z-6.131 A-98.295 B0 C180 F2000
G1 X596.589 Y140.194 Z-6.131 A-98.293 B0 C180 F2000
G1 X596.536 Y139.935 Z-6.131 A-98.293 B0 C180 F2000
G1 X596.504 Y139.671 Z-6.131 A-98.293 B0 C180 F2000
G1 X596.5 Y139.539 Z-6.131 A-98.294 B0 C180 F2000
G1 X596.499 Y136.894 Z-6.131 A-98.304 B0 C180 F2000
G1 X596.5 Y134.25 Z-6.131 A-98.315 B0 C180 F2000
G1 X596.528 Y55.088 Z-6.131 A-98.648 B0 C180 F2000
G1 X596.549 Y54.957 Z-6.131 A-98.649 B0 C180 F2000
G1 X596.613 Y54.698 Z-6.131 A-98.652 B0 C180 F2000
G1 X596.699 Y54.446 Z-6.131 A-98.656 B0 C180 F2000
G1 X596.807 Y54.202 Z-6.131 A-98.66 B0 C180 F2000
G1 X596.935 Y53.968 Z-6.131 A-98.665 B0 C180 F2000
G1 X597.084 Y53.747 Z-6.131 A-98.67 B0 C180 F2000
G1 X597.251 Y53.539 Z-6.131 A-98.676 B0 C180 F2000
G1 X597.435 Y53.347 Z-6.131 A-98.682 B0 C180 F2000
G1 X597.635 Y53.171 Z-6.131 A-98.688 B0 C180 F2000
G1 X597.85 Y53.013 Z-6.131 A-98.695 B0 C180 F2000
G1 X598.078 Y52.875 Z-6.131 A-98.702 B0 C180 F2000
G1 X598.317 Y52.757 Z-6.131 A-98.71 B0 C180 F2000
G1 X598.565 Y52.66 Z-6.131 A-98.717 B0 C180 F2000
G1 X598.821 Y52.585 Z-6.131 A-98.725 B0 C180 F2000
G1 X599.083 Y52.533 Z-6.131 A-98.733 B0 C180 F2000
G1 X599.347 Y52.503 Z-6.131 A-98.741 B0 C180 F2000
G1 X599.481 Y52.5 Z-6.131 A-98.744 B0 C180 F2000
G1 X600.459 Y52.499 Z-6.131 A-98.773 B0 C180 F2000
G1 X601.437 Y52.5 Z-6.131 A-98.801 B0 C180 F2000
G1 X645.62 Y52.5 Z-6.131 A-100.07 B0 C180 F2000
G1 X645.708 Y52.5 Z-6.144 A-100.072 B0 C180 F1080
G1 X645.882 Y52.5 Z-6.19 A-100.077 B0 C180 F1080
G1 X646.05 Y52.501 Z-6.254 A-100.082 B0 C180 F1080
G1 X646.21 Y52.501 Z-6.335 A-100.087 B0 C180 F1080
G1 X646.286 Y52.501 Z-6.383 A-100.089 B0 C180 F1080
G1 X646.517 Y52.5 Z-6.43 A-100.095 B0 C180 F1080
G1 X661.5 Y52.5 Z-6.43 A-100.523 B0 C180 F2000
G1 X723.961 Y52.536 Z-6.43 A-102.294 B0 C180 F2000
G1 X724.076 Y52.556 Z-6.43 A-102.297 B0 C180 F2000
G1 X724.304 Y52.614 Z-6.43 A-102.304 B0 C180 F2000
G1 X724.527 Y52.689 Z-6.43 A-102.309 B0 C180 F2000
G1 X724.743 Y52.782 Z-6.43 A-102.315 B0 C180 F2000
G1 X724.952 Y52.89 Z-6.43 A-102.32 B0 C180 F2000
G1 X725.152 Y53.014 Z-6.43 A-102.325 B0 C180 F2000
G1 X725.342 Y53.153 Z-6.43 A-102.329 B0 C180 F2000
G1 X725.521 Y53.305 Z-6.43 A-102.334 B0 C180 F2000
G1 X725.687 Y53.471 Z-6.43 A-102.337 B0 C180 F2000
G1 X725.841 Y53.649 Z-6.43 A-102.34 B0 C180 F2000
G1 X725.98 Y53.839 Z-6.43 A-102.343 B0 C180 F2000
G1 X726.105 Y54.038 Z-6.43 A-102.345 B0 C180 F2000
G1 X726.214 Y54.247 Z-6.43 A-102.347 B0 C180 F2000
G1 X726.307 Y54.463 Z-6.43 A-102.349 B0 C180 F2000
G1 X726.383 Y54.685 Z-6.43 A-102.349 B0 C180 F2000
G1 X726.442 Y54.913 Z-6.43 A-102.35 B0 C180 F2000
G1 X726.463 Y55.029 Z-6.43 A-102.349 B0 C180 F2000
G1 X726.484 Y61.486 Z-6.43 A-102.311 B0 C180 F2000
G1 X726.51 Y74.401 Z-6.43 A-102.233 B0 C180 F2000
G1 X726.52 Y87.315 Z-6.43 A-102.156 B0 C180 F2000
G1 X726.512 Y100.23 Z-6.43 A-102.079 B0 C180 F2000
G1 X726.5 Y106.688 Z-6.43 A-102.041 B0 C180 F2000
G1 X726.464 Y139.961 Z-6.43 A-101.849 B0 C180 F2000
G1 X726.444 Y140.076 Z-6.43 A-101.848 B0 C180 F2000
G1 X726.386 Y140.304 Z-6.43 A-101.845 B0 C180 F2000
G1 X726.311 Y140.527 Z-6.43 A-101.841 B0 C180 F2000
G1 X726.218 Y140.743 Z-6.43 A-101.838 B0 C180 F2000
G1 X726.11 Y140.952 Z-6.43 A-101.834 B0 C180 F2000
G1 X725.986 Y141.152 Z-6.43 A-101.829 B0 C180 F2000
G1 X725.847 Y141.342 Z-6.43 A-101.824 B0 C180 F2000
G1 X725.695 Y141.521 Z-6.43 A-101.819 B0 C180 F2000
G1 X725.529 Y141.687 Z-6.43 A-101.814 B0 C180 F2000
G1 X725.351 Y141.841 Z-6.43 A-101.808 B0 C180 F2000
G1 X725.161 Y141.98 Z-6.43 A-101.802 B0 C180 F2000
G1 X724.962 Y142.105 Z-6.43 A-101.796 B0 C180 F2000
G1 X724.753 Y142.214 Z-6.43 A-101.79 B0 C180 F2000
G1 X724.537 Y142.307 Z-6.43 A-101.783 B0 C180 F2000
G1 X724.315 Y142.383 Z-6.43 A-101.777 B0 C180 F2000
G1 X724.087 Y142.442 Z-6.43 A-101.77 B0 C180 F2000
G1 X723.971 Y142.463 Z-6.43 A-101.767 B0 C180 F2000
G1 X723.671 Y142.489 Z-6.43 A-101.759 B0 C180 F2000
G1 X723.069 Y142.521 Z-6.43 A-101.743 B0 C180 F2000
G1 X722.466 Y142.53 Z-6.43 A-101.726 B0 C180 F2000
G1 X721.863 Y142.517 Z-6.43 A-101.71 B0 C180 F2000
G1 X721.562 Y142.5 Z-6.43 A-101.702 B0 C180 F2000
G1 X599.039 Y142.464 Z-6.43 A-98.352 B0 C180 F2000
G1 X598.924 Y142.444 Z-6.43 A-98.349 B0 C180 F2000
G1 X598.696 Y142.386 Z-6.43 A-98.343 B0 C180 F2000
G1 X598.473 Y142.311 Z-6.43 A-98.337 B0 C180 F2000
G1 X598.257 Y142.218 Z-6.43 A-98.331 B0 C180 F2000
G1 X598.048 Y142.11 Z-6.43 A-98.326 B0 C180 F2000
